!!!!SEGMENT: pl-cz--i-54_leszczylnski-wlladysllaw--mandatum-novum.krn
!!!cenid: 17xx:956
!!!COM: Leszczyński, Władysław
!!!COM-rismid: pe30025416
!!!CDT: 1616-1680
!!!CNT: Polish
!!!OTL: Mandatum novum
!!!PDT: 1722
!!!AGN: Sacred
!!!SMS-siglum: PL-CZ
!!!SMS-shelfmark: I-54
!!!SMS-shelfwork: W
!!!SMS-variant:
!!!SMS-altvar:
!!!NIFC-rismid: 300033544
!!!URL-scan: http://repozytorium.nifc.pl/skany/pl-cz-nut--i-54
!!!ONB-nifc:
**kern	**text	**kern	**text	**kern	**text	**kern	**text	**kern	**text	**kern	**text
*part6	*part6	*part5	*part5	*part4	*part4	*part3	*part3	*part2	*part2	*part1	*part1
*staff6	*staff6	*staff5	*staff5	*staff4	*staff4	*staff3	*staff3	*staff2	*staff2	*staff1	*staff1
*Icello	*	*Iempty	*	*Iempty	*	*Iempty	*	*Iempty	*	*Iempty	*
*I"Violone	*	*I"Baſso .	*	*I"Tenore .	*	*I"Alto .	*	*I"Canto 2do!	*	*I"Canto Primo .	*
*I'vlne	*	*I'B	*	*I'T	*	*I'A	*	*I'S 2	*	*I'S 1	*
*>[A,B,A,C]	*>[A,B,A,C]	*>[A,B,A,C]	*>[A,B,A,C]	*>[A,B,A,C]	*>[A,B,A,C]	*>[A,B,A,C]	*>[A,B,A,C]	*>[A,B,A,C]	*>[A,B,A,C]	*>[A,B,A,C]	*>[A,B,A,C]
*>A	*>A	*>A	*>A	*>A	*>A	*>A	*>A	*>A	*>A	*>A	*>A
*clefF4	*	*clefF4	*	*clefC4	*	*clefC3	*	*clefC1	*	*clefC1	*
*Trd0c0	*	*	*	*	*	*	*	*	*	*	*
*k[]	*	*k[]	*	*k[]	*	*k[]	*	*k[]	*	*k[]	*
*C:	*	*C:	*	*C:	*	*C:	*	*C:	*	*C:	*
=1	=1	=1	=1	=1	=1	=1	=1	=1	=1	=1	=1
!	!	!	!	!	!	!	!	!LO:TX:a:t=Mandatum. \nTacet.	!	!	!
!LO:TX:a:t=Intonatio.	!	!LO:TX:a:t=Intonatio.	!	!LO:TX:a:t=Intonatio.	!	!LO:TX:a:t=Intonatio. \nMandatum. \nTacet.	!	!LO:TX:a:t=Intonatio.	!	!LO:TX:a:t=Mandatum&colon;\nTacet&colon;	!
G	Man-	G	Man-	G	Man-	.	.	.	.	.	.
G	-da-	G	-da-	G	-da-	.	.	.	.	.	.
A	-tum	A	-tum	A	-tum	.	.	.	.	.	.
c	no-	c	no-	c	no-	.	.	.	.	.	.
B	-vum	B	-vum	B	-vu(m)	.	.	.	.	.	.
A	do	A	do	A	do	.	.	.	.	.	.
c	Vo-	c	Vo-	c	Vo-	.	.	.	.	.	.
c	-bis.	c	-bis.	c	-bis.	.	.	.	.	.	.
=2||	=2||	=2||	=2||	=2||	=2||	=2||	=2||	=2||	=2||	=2||	=2||
*>B	*>B	*>B	*>B	*>B	*>B	*>B	*>B	*>B	*>B	*>B	*>B
*M2/2	*	*M2/2	*	*M2/2	*	*M2/2	*	*M2/2	*	*M2/2	*
*met(c|)	*	*met(C|)	*	*met(C|)	*	*met(C|)	*	*met(C|)	*	*met(C|)	*
*	*	*	*	*	*	*	*	*	*	*2\right	*
!LO:TX:b:t=Vt diligatis&colon;	!	!	!	!	!	!	!	!	!	!	!
!LO:TX:a:t=Allebreve.	!	!	!	!LO:TX:a:t=Allebreve.	!	!LO:TX:a:t=Allebreve.	!	!LO:TX:a:t=Allebreve.	!	!LO:TX:a:t=Allebreve.	!
1E	.	1E	Ut	0G	Vt	1e	Vt	1b	Vt	2b\	Ut
!	!	!	!	!	!	!	!	!	!	!LO:TX:t=P:problem:przekreślona synkopowana wartość	!
.	.	.	.	.	.	.	.	.	.	1ee	di-
=3	=3	=3	=3	=3	=3	=3	=3	=3	=3	=3-	=3
[y1C	.	[y1C	di-	.	.	1g	di-	[y1cc	di-	.	.
.	.	.	.	.	.	.	.	.	.	2ee\	-li-
=4	=4	=4	=4	=4	=4	=4	=4	=4	=4	=4	=4
*	*	*	*	*	*	*2\right	*	*	*	*	*
!LO:N:vis=xstem:cue	!	!LO:N:vis=xstem:cue	!	!	!	!	!	!LO:N:vis=xtem:cue	!	!	!
2C/]	.	2C/]	.	1A	di-	2e\	-li-	2cc\]	.	4ee\	-ga-
.	.	.	.	.	.	.	.	.	.	4dd\	.
*	*	*	*	*	*	*	*	*2\right	*	*	*
2AA/	.	2AA/	-li-	.	.	[y2a\	-ga-	2cc\	-li-	4cc\	.
.	.	.	.	.	.	.	.	.	.	4b\	.
=5	=5	=5	=5	=5	=5	=5	=5	=5	=5	=5	=5
!	!	!	!	!	!	!LO:N:vis=xstem:cue	!	!	!	!LO:TX:a:t=2.	!
[y1F	.	[y1F	-ga-	1A	-li-	4a\]	.	1cc	-ga-	0a	.
.	.	.	.	.	.	4g\	.	.	.	.	.
.	.	.	.	.	.	4f\	.	.	.	.	.
.	.	.	.	.	.	4e\	.	.	.	.	.
=6	=6	=6	=6	=6	=6	=6	=6	=6	=6	=6-	=6
!LO:N:vis=xstem:cue	!	!LO:N:vis=xstem:cue	!	!	!	!	!	!	!	!	!
2F\]	.	2F\]	.	0A	-ga-	2a\	.	(2dd\	.	.	.
*2\right	*	*2\right	*	*	*	*	*	*	*	*	*
2E\	.	2E\	.	.	.	2g\	.	2ee\)	.	.	.
=7	=7	=7	=7	=7	=7	=7	=7	=7	=7	=7	=7
!	!	!	!	!	!	!	!	!LO:TX:t=P:problem:oddech jako rozdzielacz słów:global	!	!	!
[y1D	.	[y1D	.	.	.	2f\	.	2a,<\	-tis	[y1a	.
.	.	.	.	.	.	4d\	.	1ff	in-	.	.
.	.	.	.	.	.	4e\	.	.	.	.	.
=8	=8	=8	=8	=8	=8	=8	=8	=8-	=8	=8	=8
!LO:N:vis=xstem:cue	!	!LO:N:vis=xstem:cue	!	!	!	!	!	!	!	!LO:N:vis=xstem:cue	!
2D\]	.	2D\]	.	0B	-tis	2f\	.	.	.	2a\]	.
2C/	.	2C/	.	.	.	2g\	.	2ee\	.	2e/	-tis
=9	=9	=9	=9	=9	=9	=9	=9	=9	=9	=9	=9
2D/	.	2D/	.	.	.	1d	-tis	1dd	.	2f#X/	in-
!LO:SIC:v:t=custos CC	!	!LO:SIC:v:t=custos C	!	!	!	!	!	!	!	!LO:TX:t=P:problem:przekreślona synkopowana wartość	!
2BB/	.	2BB/	-tis	.	.	.	.	.	.	1g	.
!LO:LB:g=original	!	!LO:LB:g=original	!	!	!	!	!	!	!	!	!
=10	=10	=10	=10	=10	=10	=10	=10	=10	=10	=10-	=10
2C/	.	2C/	in-	1A	in-	2e\	in-	2cc\	.	.	.
!	!	!	!	!	!	!LO:SIC:v:t=custos d	!	!	!	!	!
2D/	.	2D/	-vi-	.	.	2d\	-vi-	2a\	-Vi-	2f#X/	-Vi-
!	!	!	!	!	!	!LO:LB:g=original	!	!	!	!	!
=11	=11	=11	=11	=11	=11	=11	=11	=11	=11	=11	=11
1GG	.	1GG	-cem	1G	-vi-	0d	-cem,	1b	-cem,	2g/	-cem,
.	.	.	.	.	.	.	.	.	.	2dd\	Si-
=12	=12	=12	=12	=12	=12	=12	=12	=12	=12	=12	=12
2r	.	2r	.	1G	-cem	.	.	2r	.	2b\	-cut
!	!	!	!	!	!	!	!	!	!	!LO:TX:t=P:problem:przekreślona synkopowana wartość	!
2G\	.	2G\	Si-	.	.	.	.	2b\	Si-	1g	di-
=13	=13	=13	=13	=13	=13	=13	=13	=13	=13	=13-	=13
!	!	!	!	!	!	!LO:TX:a:t=2.	!	!LO:SIC:v:t=custos e	!	!	!
2E\	.	2E\	-cut	1c	Si-	0r	.	2g/	-cut	.	.
!	!	!	!	!	!	!	!	!LO:LB:g=original	!	!LO:SIC:v:t=custos cc	!
2C/	.	2C/	di-	.	.	.	.	2e/	di-	[2cc\	-le-
!	!	!	!	!	!	!	!	!	!	!LO:LB:g=original	!
=14	=14	=14	=14	=14	=14	=14	=14	=14	=14	=14	=14
!	!	!	!	!LO:SIC:v:t=custos B	!	!	!	!	!	!	!
2.F\	.	2.F\	-le-	1c	-cut-	.	.	1a	-le-	4cc\]	.
.	.	.	.	.	.	.	.	.	.	4b\	.
.	.	.	.	.	.	.	.	.	.	4a\	.
4E\	.	4E\	.	.	.	.	.	.	.	4g\	.
!	!	!	!	!LO:LB:g=original	!	!	!	!	!	!	!
=15	=15	=15	=15	=15	=15	=15-	=15	=15	=15	=15	=15
2D\	.	2D\	.	1B	.	2r	.	1d	-xi	2f/	.
2E\	.	2E\	.	.	.	2g\	Si-	.	.	2g/	.
=16	=16	=16	=16	=16	=16	=16	=16	=16	=16	=16	=16
2.F\	.	2.F\	.	1A	-di-	2f\	-cut	1c	Vos,	2.a\	.
.	.	.	.	.	.	2d\	di-	.	.	.	.
8E\L	.	8E\L	.	.	.	.	.	.	.	8g/L	.
8D\J	.	8D\J	.	.	.	.	.	.	.	8f/J	.
=17	=17	=17	=17	=17	=17	=17	=17	=17	=17	=17	=17
!	!	!	!	!	!	!	!	!LO:TX:a:t=2.	!	!	!
2C/	.	4C/	.	1c	-le-	2e\	-le-	0r	.	2e/	.
.	.	4BB/	.	.	.	.	.	.	.	.	.
2AA/	.	2AA/	.	.	.	4d\	.	.	.	[2a\	.
.	.	.	.	.	.	4c\	.	.	.	.	.
=18	=18	=18	=18	=18	=18	=18	=18	=18	=18	=18	=18
!	!	!	!	!	!	!	!	!	!	!LO:N:vis=xstem:cue	!
2.BB/	.	2.BB/	.	1B	.	[y1d	.	.	.	4a\]	.
.	.	.	.	.	.	.	.	.	.	4g/	.
.	.	.	.	.	.	.	.	.	.	[2g/	.
4C/	.	4C/	.	.	.	.	.	.	.	.	.
=19	=19	=19	=19	=19	=19	=19	=19	=19-	=19	=19	=19
!	!	!	!	!	!	!LO:N:vis=xstem:cue	!	!	!	!	!
2D/	.	2D/	.	1A	.	2d\]	.	2r	.	2g/]	.
2D/	.	2D/	-xi	.	.	2d\	-xi	2dd\	Si-	2f#X/	-xi
=20	=20	=20	=20	=20	=20	=20	=20	=20	=20	=20	=20
1GG	.	1GG	vos	1G	.	0d	Vos,	2b,<\	-cut	2g/	Vos,
.	.	.	.	.	.	.	.	2g\	di-	(2dd\	di-
=21	=21	=21	=21	=21	=21	=21	=21	=21	=21	=21	=21
2r	.	2r	.	(1A	-xi	.	.	4f/	-le-	1ff)	.
.	.	.	.	.	.	.	.	4g/	.	.	.
2D/	.	2D/	di-	.	.	.	.	4a/	.	.	.
.	.	.	.	.	.	.	.	4f/	.	.	.
=22	=22	=22	=22	=22	=22	=22	=22	=22	=22	=22	=22
!	!	!LO:SIC:v:t=custos D	!	!	!	!	!	!	!	!	!
1G	.	1G	-cit	1B)	.	2r	.	4g\	.	1dd	-cit
.	.	.	.	.	.	.	.	4a\	.	.	.
.	.	.	.	.	.	2d\	di-	4b\	.	.	.
.	.	.	.	.	.	.	.	4g\	.	.	.
!	!	!LO:LB:g=original	!	!	!	!	!	!	!	!	!
=23	=23	=23	=23	=23	=23	=23	=23	=23	=23	=23	=23
!LO:SIC:v:t=custos E	!	!	!	!	!	!	!	!	!	!	!
1D	.	(1D	do-	(1A	Vos	1f	-cit	2a\	.	2.dd\	Do-
.	.	.	.	.	.	.	.	2f/	-xi	.	.
.	.	.	.	.	.	.	.	.	.	4cc#X\	.
!LO:LB:g=original	!	!	!	!	!	!	!	!	!	!	!
=24	=24	=24	=24	=24	=24	=24	=24	=24	=24	=24	=24
1E	.	1E)	.	1G)	.	4e\	Do-	1g	Vos,	2b\	.
.	.	.	.	.	.	4f\	.	.	.	.	.
.	.	.	.	.	.	4g\	.	.	.	2cc#X\	-mi-
.	.	.	.	.	.	4e\	.	.	.	.	.
=25	=25	=25	=25	=25	=25	=25	=25	=25	=25	=25	=25
2.D/	.	2.D/	.	1A	di-	2.f\	.	2r	.	1dd	-nus;
.	.	.	.	.	.	.	.	2a\	di-	.	.
4C/	.	4C/	.	.	.	4e\	.	.	.	.	.
=26	=26	=26	=26	=26	=26	=26	=26	=26	=26	=26	=26
!	!	!	!	!	!	!	!	!	!	!LO:SIC:v:t=custos a	!
!	!	!	!	!	!	!	!	!	!	!LO:TX:a:t=1	!
2BB/	.	2BB/	.	(>1G	-cit	2d\	.	1b	-cit	1r	.
2C/	.	2C/	-mi-	.	.	2e\	-mi-	.	.	.	.
!	!	!	!	!	!	!	!	!	!	!LO:LB:g=original	!
=27	=27	=27	=27	=27	=27	=27	=27	=27	=27	=27	=27
!	!	!	!	!	!	!LO:SIC:v:t=custos f	!	!	!	!	!
1D	.	1D	-nus	1F)	.	1f	-nus	2a\	Do-	2r	.
.	.	.	.	.	.	.	.	4g/	.	2a\	di-
.	.	.	.	.	.	.	.	4f/	.	.	.
!	!	!	!	!	!	!LO:LB:g=original	!	!	!	!	!
=28	=28	=28	=28	=28	=28	=28	=28	=28	=28	=28	=28
!	!	!	!	!	!	!LO:TX:a:t=1.	!	!	!	!	!
2E\	.	2E\	Do-	(>1G	Do-	1r	.	4e/	.	1cc	-cit
.	.	.	.	.	.	.	.	4f/	.	.	.
2C/	.	2C/	-mi-	.	.	.	.	4g/	.	.	.
!	!	!	!	!	!	!	!	!LO:SIC:v:t=custos f	!	!	!
.	.	.	.	.	.	.	.	4e/	.	.	.
!	!	!	!	!	!	!	!	!LO:LB:g=original	!	!	!
=29	=29	=29	=29	=29	=29	=29-	=29	=29	=29	=29	=29
1D	.	1D	-nus	1F)	.	2r	.	2.f/	.	2.a\	Do-
.	.	.	.	.	.	2f\	di-	.	.	.	.
.	.	.	.	.	.	.	.	4f/	-mi-	4b\	.
=30	=30	=30	=30	=30	=30	=30	=30	=30	=30	=30	=30
2AA/	.	2AA/	di-	[y1E	.	2a\	-cit	2c,</	-n(us)	2.cc\	.
1C	.	1C	.	.	.	[2g\	Do-	2cc\	di-	.	.
.	.	.	.	.	.	.	.	.	.	4dd\	.
=31-	=31	=31	=31	=31	=31	=31	=31	=31	=31	=31	=31
!	!	!	!	!LO:N:vis=xstem:cue	!	!LO:N:vis=xstem:cue	!	!	!	!	!
.	.	.	.	2E/]	.	4g\]	.	1ee	-cit	4ee\	.
.	.	.	.	.	.	4f\	.	.	.	4ff\	.
2GG#X/	.	2GG#X/	-cit	2E/	-mi-	4e\	.	.	.	[2ee\	.
.	.	.	.	.	.	4d\	.	.	.	.	.
=32	=32	=32	=32	=32	=32	=32	=32	=32	=32	=32	=32
!	!	!	!	!	!	!	!	!	!	!LO:N:vis=xstem:cue	!
[y1AA	.	1.AA	Do-	[0E;l	-nus.	4c\	.	[y1a	Do-	4ee\]	.
.	.	.	.	.	.	4d\	.	.	.	4dd\	.
!	!	!	!	!	!	!LO:TX:t=P:problem:przekreślona synkopowana wartość	!	!	!	!	!
.	.	.	.	.	.	1e	.	.	.	4cc\	.
.	.	.	.	.	.	.	.	.	.	4b\	.
=33	=33	=33-	=33	=33	=33	=33-	=33	=33	=33	=33	=33
!LO:N:vis=xstem:cue	!	!	!	!	!	!	!	!LO:N:vis=xstem:cue	!	!	!
2AA/]	.	.	.	.	.	.	.	2a\]	.	2.cc\	.
2AA/	.	2AA/	-mi-	.	.	2e\	-mi-	2a\	-mi-	.	.
.	.	.	.	.	.	.	.	.	.	4cc\	-mi-
=34	=34	=34	=34	=34	=34	=34	=34	=34	=34	=34	=34
!LO:N:vis=0	!	!LO:N:vis=0	!	!	!	!LO:N:vis=0	!	!LO:N:vis=0	!	!	!
1E;l	.	1E;l	-nus.	1E]	.	1e;l	-nus.	1g#Xl	-nus.	1b;	-nus:
!	!	!	!	!LO:LB:g=original	!	!	!	!	!	!	!
=35||	=35||	=35||	=35||	=35||	=35||	=35||	=35||	=35||	=35||	=35||	=35||
!LO:TX:a:i:t=Inton&colon;	!	!	!	!	!	!	!	!	!	!	!
*	*	*lig	*	*	*	*	*	*	*	*	*
!	!	!LO:TX:a:i:t=Intona&colon;	!	!LO:TX:a:t=Intonatio.	!	!LO:TX:a:t=Beati. \nTacet.	!	!LO:TX:a:t=Beati \nTacet.	!	!LO:TX:a:t=Beati&colon; \nTacet&colon;	!
G	Be-	G	Be-	G	Be-	.	.	.	.	.	.
*lig	*	*	*	*	*	*	*	*	*	*	*
A	-a-	A	.	A	-a-	.	.	.	.	.	.
*	*	*Xlig	*	*	*	*	*	*	*	*	*
c	.	c	-a-	c	.	.	.	.	.	.	.
*Xlig	*	*	*	*	*	*	*	*	*	*	*
c	-ti	c	-ti	c	-ti	.	.	.	.	.	.
c	im-	c	im-	c	im-	.	.	.	.	.	.
c	-ma-	c	-ma-	c	-ma-	.	.	.	.	.	.
c	-cu-	c	-cu-	c	-cu-	.	.	.	.	.	.
!	!	!LO:LB:g=original	!	!	!	!	!	!	!	!	!
*lig	*	*lig	*	*	*	*	*	*	*	*	*
c	-la-	c	-la-	cyy	[-la-]	.	.	.	.	.	.
!LO:SIC:v:t=custos c	!	!	!	!	!	!	!	!	!	!	!
d	.	d	.	d	-la-	.	.	.	.	.	.
*Xlig	*	*Xlig	*	*	*	*	*	*	*	*	*
!LO:LB:g=original	!	!	!	!	!	!	!	!	!	!	!
c	-ti	c	-ti	c	-ti	.	.	.	.	.	.
*lig	*	*lig	*	*lig	*	*	*	*	*	*	*
c	in	c	in	c	in	.	.	.	.	.	.
B	.	B	.	B	.	.	.	.	.	.	.
*Xlig	*	*Xlig	*	*Xlig	*	*	*	*	*	*	*
A	Vi-	A	Vi-	A	Vi-	.	.	.	.	.	.
*lig	*	*lig	*	*lig	*	*	*	*	*	*	*
A	-a.	A	-a	A	-a	.	.	.	.	.	.
c	.	c	.	c	.	.	.	.	.	.	.
*Xlig	*	*Xlig	*	*Xlig	*	*	*	*	*	*	*
=36||	=36||	=36||	=36||	=36||	=36||	=36||	=36||	=36||	=36||	=36||	=36||
*M2/2	*	*M2/2	*	*M2/2	*	*M2/2	*	*M2/2	*	*M2/2	*
*met(C|)	*	*met(C|)	*	*met(C|)	*	*met(C|)	*	*met(C|)	*	*met(C|)	*
!LO:TX:b:t=Qui ambulans.	!	!	!	!	!	!	!	!	!	!	!
1C	.	1C	Qui	1c	Qui	1e	Qui	1gn	Qui	1cc	Qui
=37	=37	=37	=37	=37	=37	=37	=37	=37	=37	=37	=37
[y1F	.	[y1F	am-	[y1c	am-	[1f	am-	[y1a	am-	[y1cc	am-
=38	=38	=38	=38	=38	=38	=38	=38	=38	=38	=38	=38
!LO:N:vis=xstem:cue	!	!LO:N:vis=xstem:cue	!	!LO:N:vis=xstem:cue	!	!LO:N:vis=xstem:cue	!	!LO:N:vis=xstem:cue	!	!LO:N:vis=xstem:cue	!
2F\]	.	2F\]	.	2c\]	.	2f\]	.	2a\]	.	2cc\]	.
*	*	*	*	*2\right	*	*	*	*	*	*	*
!	!	!	!	!	!	!	!	!	!	!LO:SIC:v:t=custos cc	!
2F\	.	2F\	-bu-	2c\	-bu-	2f\	-bu-	2a\	-bu-	2cc\	-bu-
!	!	!	!	!	!	!	!	!	!	!LO:LB:g=original	!
=39	=39	=39	=39	=39	=39	=39	=39	=39	=39	=39	=39
!	!	!	!	!	!	!	!	!	!	!LO:TX:t=P:problem:oddech jako rozdzielacz słów:global	!
1F	.	1F	-lans	1c	-lans	1f	-lans	1a	-lans	2cc,<\	-lans
.	.	.	.	.	.	.	.	.	.	2a\	in
=40	=40	=40	=40	=40	=40	=40	=40	=40	=40	=40	=40
!	!	!	!	!	!	!LO:SIC:v:t=custos f	!	!	!	!	!
1E	.	1E	in	1c	in	1g	in	2g\	in	2cc\	le-
!	!	!	!	!	!	!	!	!LO:SIC:v:t=custos cc	!	!	!
.	.	.	.	.	.	.	.	[2cc\	le-	2g/	-ge
!	!	!	!	!	!	!LO:LB:g=original	!	!LO:LB:g=original	!	!	!
=41	=41	=41	=41	=41	=41	=41	=41	=41	=41	=41	=41
!	!	!	!	!LO:SIC:v:t=custos A	!	!	!	!	!	!	!
[y1F	.	[y1F	le-	1c	le-	0f	le-	4cc\]	.	2.a\	Do-
.	.	.	.	.	.	.	.	4b\	.	.	.
.	.	.	.	.	.	.	.	[y2a\	.	.	.
.	.	.	.	.	.	.	.	.	.	4g/	.
!	!	!	!	!LO:LB:g=original	!	!	!	!	!	!	!
=42	=42	=42	=42	=42	=42	=42	=42	=42	=42	=42	=42
!LO:N:vis=xstem:cue	!	!LO:N:vis=xstem:cue	!	!	!	!	!	!LO:N:vis=xstem:cue	!	!	!
2F\]	.	2F\]	.	1A	-ge	.	.	4a\]	.	4f/	.
.	.	.	.	.	.	.	.	4g/	.	4g/	.
2D/	.	2D/	-ge	.	.	.	.	2f/	.	4a/	.
.	.	.	.	.	.	.	.	.	.	4f/	.
=43	=43	=43	=43	=43	=43	=43	=43	=43	=43	=43	=43
1E	.	1E	in	[y1c	Do-	1c	-ge	2e,</	-ge	2.g/	.
.	.	.	.	.	.	.	.	2cc\	in	.	.
.	.	.	.	.	.	.	.	.	.	4g/	-mi-
=44	=44	=44	=44	=44	=44	=44	=44	=44	=44	=44	=44
!	!	!	!	!LO:N:vis=xstem:cue	!	!	!	!	!	!	!
2F\	.	2F\	le-	2c\]	.	2r	.	[1a	le-	2cc,<\	-ni
2C/	.	2C/	-ge	2c\	-mi-	2e\	in	.	.	2cc\	in
=45	=45	=45	=45	=45	=45	=45	=45	=45	=45	=45	=45
2D/	.	2D/	Do-	(1A	-ni.	4f\	le-	4a\]	.	2.ff\	le-
.	.	.	.	.	.	4g\	.	4b\	.	.	.
2AA/	.	2AA/	.	.	.	2a\	.	4cc\	.	.	.
.	.	.	.	.	.	.	.	4dd\	.	4ee\	.
=46	=46	=46	=46	=46	=46	=46	=46	=46	=46	=46	=46
2BB/	.	2BB/	.	(>1G)	.	2d\	-ge	2dd,<\	-ge	2dd\	.
!	!	!LO:SIC:v:t=custos D	!	!	!	!	!	!	!	!	!
1C	.	[2C/	.	.	.	[2g\	Do-	[y2g/	Do-	[y2ee\	.
!	!	!LO:LB:g=original	!	!	!	!	!	!	!	!	!
=47	=47	=47	=47	=47	=47	=47	=47	=47	=47	=47	=47
!	!	!LO:TX:t=P:problem:brak zakończenia ligatury	!	!	!	!LO:N:vis=xstem:cue	!	!LO:N:vis=xstem:cue	!	!LO:N:vis=xstem:cue	!
.	.	2C/]	.	1G	.	4g\]	.	4g/]	.	4ee\]	.
.	.	.	.	.	.	4f\	.	4a\	.	4dd\	.
!	!	!	!	!	!	!	!	!LO:TX:t=P:problem:przekreślona synkopowana wartość	!	!	!
2GG/	.	2GG/	.	.	.	4e\	.	1b	.	(4cc\	-ge
.	.	.	.	.	.	4d\	.	.	.	4b\)	.
=48	=48	=48	=48	=48	=48	=48	=48	=48-	=48	=48	=48
!LO:SIC:v:t=custos AAA	!	!	!	!	!	!	!	!	!	!	!
1AA	.	[y1AA	.	[>1E)	.	4c\	.	.	.	[y1cc	Do-
.	.	.	.	.	.	4d\	.	.	.	.	.
!	!	!	!	!	!	!LO:TX:t=P:problem:przekreślona synkopowana wartość	!	!	!	!	!
.	.	.	.	.	.	1e	.	4a\	.	.	.
.	.	.	.	.	.	.	.	4g#X\	.	.	.
!LO:LB:g=original	!	!	!	!	!	!	!	!	!	!	!
=49	=49	=49	=49	=49	=49	=49-	=49	=49	=49	=49	=49
!	!	!LO:N:vis=xstem:cue	!	!	!	!	!	!	!	!LO:N:vis=xstem:cue	!
1AA	.	2AA/]	.	1E]	.	.	.	2.a\	.	2cc\]	.
.	.	2AA/	-mi-	.	.	2e\	-mi-	.	.	2cc\	-mi-
.	.	.	.	.	.	.	.	4a\	-mi-	.	.
=50	=50	=50	=50	=50	=50	=50	=50	=50	=50	=50	=50
!LO:N:vis=0	!	!LO:N:vis=0	!	!	!	!LO:N:vis=0	!	!LO:N:vis=0	!	!LO:TX:t=P:problem:fermata nad kreską	!
!LO:TX:b:t=Mandatum \nut Supra.	!	!LO:TX:b:t=Mandatum \nda Capo.	!	!LO:TX:b:t=Mandatum \nda Capo.	!	!LO:TX:b:t=Mandatum \nut Supra.	!	!LO:TX:b:t=Mandatum \nut Supra.	!	!LO:TX:b:t=Mandatum \nut Supra.	!
1E;l	.	1E;l	-ni.	1ryy	.	1e;l	-ni.	1g#X;l	-ni.	1b;	-ni.
!	!	!	!	!	!	!	!	!LO:LB:g=original	!	!LO:LB:g=original	!
=51||	=51||	=51||	=51||	=51||	=51||	=51||	=51||	=51||	=51||	=51||	=51||
*>C	*>C	*>C	*>C	*>C	*>C	*>C	*>C	*>C	*>C	*>C	*>C
!LO:TX:a:t=Intonatio.	!	!LO:TX:a:t=Intonatio.	!	!LO:TX:a:t=Intonatio&colon;	!	!LO:TX:a:t=Postqam \nTacet.	!	!LO:TX:a:t=Postquam. \nTacet.	!	!LO:TX:a:t=Postquam. \nTacet.	!
D	Post-	D	Post-	D	Post-	.	.	.	.	.	.
F	-quam	F	-quam	F	-quam	.	.	.	.	.	.
G	Sur-	G	Sur-	G	Sur-	.	.	.	.	.	.
A	-re-	A	-re-	A	-re-	.	.	.	.	.	.
A	-xit	A	-xit	A	-xit	.	.	.	.	.	.
A	Do-	A	Do-	A	Do-	.	.	.	.	.	.
!	!	!	!	!LO:SIC:v:t=custos A	!	!	!	!	!	!	!
A	-mi-	A	-mi-	A	-mi-	.	.	.	.	.	.
!	!	!	!	!LO:LB:g=original	!	!	!	!	!	!	!
A	-n(us)	A	-nus	A	-nus	.	.	.	.	.	.
A	a	A	a	A	a	.	.	.	.	.	.
G	Coe-	G	Coe-	G	Coe-	.	.	.	.	.	.
*lig	*	*lig	*	*lig	*	*	*	*	*	*	*
G	-na.	G	-na.	G	-na.	.	.	.	.	.	.
!LO:SIC:v:t=custos F	!	!	!	!	!	!	!	!	!	!	!
A	.	A	.	A	.	.	.	.	.	.	.
*Xlig	*	*Xlig	*	*Xlig	*	*	*	*	*	*	*
!LO:LB:g=original	!	!LO:LB:g=original	!	!	!	!LO:LB:g=original	!	!	!	!	!
=52||	=52||	=52||	=52||	=52||	=52||	=52||	=52||	=52||	=52||	=52||	=52||
*M2/2	*	*M2/2	*	*M2/2	*	*M2/2	*	*M2/2	*	*M2/2	*
*met(C|)	*	*met(C|)	*	*met(C|)	*	*met(C|)	*	*met(C|)	*	*met(C|)	*
!LO:TX:b:t=Misit aq(ua)m	!	!	!	!	!	!	!	!LO:TX:a:t=2.	!	!	!
1F	.	1F	Mi-	1A	Mi-	2r	.	0r	.	1f	Mi-
!	!	!	!	!	!	!LO:TX:t=P:problem:przekreślona synkopowana wartość	!	!	!	!	!
.	.	.	.	.	.	1f	Mi-	.	.	.	.
=53	=53	=53	=53	=53	=53	=53-	=53	=53	=53	=53	=53
1C	.	1C	-sit	1c	-sit	.	.	.	.	2g/	-sit
.	.	.	.	.	.	2e\	-sit	.	.	[y2a\	a-
=54	=54	=54	=54	=54	=54	=54	=54	=54-	=54	=54	=54
!	!	!	!	!	!	!	!	!	!	!LO:N:vis=xstem:cue	!
[y1D	.	[y1D	a-	1A	a-	4d\	a-	2r	.	4a\]	.
.	.	.	.	.	.	4e\	.	.	.	4g\	.
!	!	!	!	!	!	!LO:TX:t=P:problem:przekreślona synkopowana wartość	!	!LO:TX:t=P:problem:przekreślona synkopowana wartość	!	!	!
.	.	.	.	.	.	1f	.	1a	Mi-	4f/	.
.	.	.	.	.	.	.	.	.	.	4g/	.
=55	=55	=55	=55	=55	=55	=55-	=55	=55-	=55	=55	=55
!LO:N:vis=xstem:cue	!	!LO:N:vis=xstem:cue	!	!	!	!	!	!	!	!	!
2D\]	.	2D\]	.	1A	-q(ua)m	.	.	.	.	[1a	.
2C/	.	2C/	-q(ua)m	.	.	2e\	.	2cc\	-sit	.	.
=56	=56	=56	=56	=56	=56	=56	=56	=56	=56	=56	=56
!	!	!	!	!	!	!	!	!	!	!LO:N:vis=xstem:cue	!
2.BB-X/	.	2.BB-X/	in-	1B-X	in	2d\	-q(ua)m	1dd	a-	2a\]	.
!	!	!	!	!	!	!LO:TX:t=P:problem:przekreślona synkopowana wartość	!	!	!	!	!
.	.	.	.	.	.	1g	Mi-	.	.	2g/	-quam
4C/	.	4C/	.	.	.	.	.	.	.	.	.
=57	=57	=57	=57	=57	=57	=57-	=57	=57	=57	=57	=57
1D	.	(1D	-pel-	1A	pel-	.	.	1a	-quam	2r	.
.	.	.	.	.	.	2f\	-sit	.	.	2dd\	in
=58	=58	=58	=58	=58	=58	=58	=58	=58	=58	=58	=58
1AA	.	1AA)	.	0A	-vim	2e\	a-	2r	.	(2dd\	pel-
!	!	!	!	!	!	!	!	!	!	!LO:SIC:v:t=custos dd	!
.	.	.	.	.	.	[2a\	.	2a\	in	2cc#X\)	.
!	!	!	!	!	!	!	!	!	!	!LO:LB:g=original	!
=59	=59	=59	=59	=59	=59	=59	=59	=59	=59	=59	=59
!	!	!	!	!	!	!LO:N:vis=xstem:cue	!	!	!	!	!
1D	.	1D	-vim	.	.	4a\]	.	4a\	pel-	1dd	-vim,
.	.	.	.	.	.	4g\	.	4b\	.	.	.
!	!	!	!	!	!	!	!	!LO:TX:t=P:problem:przekreślona synkopowana wartość	!	!	!
.	.	.	.	.	.	2f#X\	.	1cc	.	.	.
=60	=60	=60	=60	=60	=60	=60	=60	=60-	=60	=60	=60
!	!	!	!	!LO:SIC:v:l:s=Coe-	!	!	!	!	!	!	!
2r	.	2r	.	1G	Ce	1g	-q(ua)m	.	.	2r	.
2GG/	.	2GG/	Ce-	.	.	.	.	2b\	.	2b\	et
=61	=61	=61	=61	=61	=61	=61	=61	=61	=61	=61	=61
2C/	.	2C/	-pit	1G	pit	2r	.	1cc	-vim,	[<1ee	Coe-
2C/	.	2C/	la-	.	.	2e\	in	.	.	.	.
=62	=62	=62	=62	=62	=62	=62	=62	=62	=62	=62	=62
!	!	!	!	!	!	!	!	!	!	!LO:N:vis=xstem:cue	!
1E	.	(1E	-va-	1G	la-	1e	pel-	2r	.	2ee\]	.
.	.	.	.	.	.	.	.	2g/	Coe-	2cc#X\	-pit
=63	=63	=63	=63	=63	=63	=63	=63	=63	=63	=63	=63
1D	.	1D)	.	1A	-va-	[y1d	-vim	2g/	-pit	2.dd\	la-
.	.	.	.	.	.	.	.	2f#X/	la-	.	.
.	.	.	.	.	.	.	.	.	.	4cc\	.
=64	=64	=64	=64	=64	=64	=64	=64	=64	=64	=64	=64
!	!	!	!	!LO:SIC:v:t=custos G	!	!LO:N:vis=xstem:cue	!	!	!	!	!
1GG	.	0GG	-re	1G	-re	2d\]	.	4g\	-va-	4b\	.
.	.	.	.	.	.	.	.	4a\	.	4a\	.
.	.	.	.	.	.	2d\	Coe-	4b\	.	4g\	.
!	!	!	!	!	!	!	!	!LO:SIC:v:t=custos dd	!	!	!
.	.	.	.	.	.	.	.	4cc\	.	4a\	.
!	!	!	!	!LO:LB:g=original	!	!	!	!LO:LB:g=original	!	!	!
=65	=65	=65	=65	=65	=65	=65	=65	=65	=65	=65	=65
1GG	.	.	.	1G	pe-	2g\	-pit	2dd\	-re	1b	-va-
!	!	!	!	!	!	!LO:SIC:v:t=custos e	!	!	!	!	!
.	.	.	.	.	.	2e\	la-	[2ee\	pe-	.	.
!	!	!	!	!	!	!LO:LB:g=original	!	!	!	!	!
=66	=66	=66	=66	=66	=66	=66	=66	=66	=66	=66	=66
!	!	!	!	!	!	!	!	!LO:N:vis=xstem:cue	!	!	!
1AA	.	1AA	pe-	1E	-des	1e	-Va-	4ee\]	.	2a\	-re
.	.	.	.	.	.	.	.	4dd\	.	.	.
!	!	!	!	!	!	!	!	!	!	!LO:TX:t=P:problem:przekreślona synkopowana wartość	!
.	.	.	.	.	.	.	.	2cc\	.	1a	pe-
=67	=67	=67	=67	=67	=67	=67	=67	=67	=67	=67-	=67
!LO:SIC:v:t=custos DD	!	!	!	!	!	!	!	!	!	!	!
1E	.	1E	-des	1E	dis-	1e	-re	1b	-des	.	.
.	.	.	.	.	.	.	.	.	.	2g/	-des
!LO:LB:g=original	!	!	!	!	!	!	!	!	!	!	!
=68	=68	=68	=68	=68	=68	=68	=68	=68	=68	=68	=68
!	!	!LO:SIC:v:t=custos CC	!	!	!	!	!	!	!	!	!
1D	.	1D	dis-	1F	-ci-	2A/	pe-	2r	.	2r	.
.	.	.	.	.	.	2B/	.	2dd\	dis-	2b\	dis-
!	!	!LO:LB:g=original	!	!	!	!	!	!	!	!	!
=69	=69	=69	=69	=69	=69	=69	=69	=69	=69	=69	=69
[y1C	.	[y1C	-ci-	1G	-pu-	1e	-des	2ee\	-ci-	2cc\	-ci-
.	.	.	.	.	.	.	.	2cc\	-pu-	2dd\	-pu-
=70	=70	=70	=70	=70	=70	=70	=70	=70	=70	=70	=70
!LO:N:vis=xstem:cue	!	!LO:N:vis=xstem:cue	!	!	!	!	!	!	!	!	!
2C/]	.	2C/]	.	(1G	-lo-	2r	.	2.g/	-lo-	2ee\	-lo-
!	!	!	!	!	!	!	!	!	!	!LO:SIC:v:t=custos cc	!
2BB/	.	2BB/	-pu-	.	.	2g\	dis-	.	.	2dd\	-rum
.	.	.	.	.	.	.	.	8a\L	.	.	.
.	.	.	.	.	.	.	.	8b\J	.	.	.
!	!	!	!	!	!	!	!	!	!	!LO:LB:g=original	!
=71	=71	=71	=71	=71	=71	=71	=71	=71	=71	=71	=71
2AA/	.	2AA/	-lo-	1A)	.	2g\	-ci-	2cc\	.	2cc\	Su-
2D/	.	2D/	.	.	.	2f\	-pu-	2a\	.	[2dd\	-o-
=72	=72	=72	=72	=72	=72	=72	=72	=72	=72	=72	=72
!	!	!	!	!	!	!	!	!	!	!LO:N:vis=xstem:cue	!
0GG	.	0GG	-rum,	0G	-rum	1g	-lo-	2.b\	.	4dd\]	.
.	.	.	.	.	.	.	.	.	.	4cc\	.
.	.	.	.	.	.	.	.	.	.	4b\	.
.	.	.	.	.	.	.	.	4cc\	.	4a\	.
=73	=73	=73	=73	=73	=73	=73	=73	=73	=73	=73	=73
.	.	.	.	.	.	2d\	-rum	2dd\	.	1b	.
.	.	.	.	.	.	2g\	dis-	2b\	.	.	.
=74	=74	=74	=74	=74	=74	=74	=74	=74	=74	=74	=74
1C	.	1C	hoc	1E	hoc	2g\	-ci-	4ee\	.	2g/	-rum,
.	.	.	.	.	.	.	.	4dd\	.	.	.
!	!	!	!	!	!	!	!	!	!	!LO:TX:t=P:problem:przekreślona synkopowana wartość	!
.	.	.	.	.	.	2e\	-pu-	4cc\	.	1cc	hoc
.	.	.	.	.	.	.	.	4b\	.	.	.
=75	=75	=75	=75	=75	=75	=75	=75	=75	=75	=75-	=75
1FF	.	1F	E-	1F	E-	4a\	-lo-	1a	.	.	.
.	.	.	.	.	.	4g\	.	.	.	.	.
!	!	!	!	!	!	!LO:TX:t=P:problem:przekreślona synkopowana wartość	!	!	!	!	!
.	.	.	.	.	.	1f	.	.	.	2a\	E-
=76	=76	=76	=76	=76	=76	=76-	=76	=76	=76	=76	=76
1C	.	1C	-xem-	(>1G	-xem-	.	.	2g/	-rum	1cc	-xem-
!	!	!	!	!	!	!	!	!LO:SIC:v:t=custos cc	!	!	!
.	.	.	.	.	.	2e\	.	2cc\	dis-	.	.
!	!	!	!	!	!	!	!	!LO:LB:g=original	!	!	!
=77	=77	=77	=77	=77	=77	=77	=77	=77	=77	=77	=77
1FF	.	1FF	-plum	1F)	.	1f	-rum	2cc\	-ci-	1a	-plum
.	.	.	.	.	.	.	.	2a\	-pu-	.	.
=78	=78	=78	=78	=78	=78	=78-	=78	=78	=78	=78	=78
!	!	!	!	!	!	!LO:TX:a:t=1.	!	!	!	!	!
1C	.	1C	re-	(>1E	-plum	1r	.	1g	-lo-	2r	.
.	.	.	.	.	.	.	.	.	.	2cc\	hoc
=79	=79	=79	=79	=79	=79	=79	=79	=79	=79	=79	=79
1D	.	1D	-li-	1D)	.	2f\	hoc	1f	.	2a\	E-
!	!	!	!	!	!	!LO:SIC:v:t=custos a	!	!	!	!	!
.	.	.	.	.	.	2d\	Ex-	.	.	2dd\	-xem-
!	!	!	!	!	!	!LO:LB:g=original	!	!	!	!	!
=80	=80	=80	=80	=80	=80	=80	=80	=80	=80	=80	=80
1AA	.	1AA	-quit	1C	re-	2.a\	-emp-	2e,</	-rum	2ff,<\	-plum
!	!	!	!	!	!	!	!	!LO:TX:t=P:problem:przekreślona synkopowana wartość	!	!	!
.	.	.	.	.	.	.	.	1a	hoc	2ee\	e-
.	.	.	.	.	.	4g\	.	.	.	.	.
=81	=81	=81	=81	=81	=81	=81	=81	=81-	=81	=81	=81
1D	.	1D	re-	(>1D	-li-	2f\	.	.	.	1dd	-xem-
.	.	.	.	.	.	2d\	-lum	2b\	E-	.	.
=82	=82	=82	=82	=82	=82	=82	=82	=82	=82	=82	=82
1C	.	1C	-li-	1E)	.	1g	re-	1cc	-xem-	2g,</	-plum
!	!	!	!	!	!	!	!	!	!	!LO:TX:t=P:problem:przekreślona synkopowana wartość	!
.	.	.	.	.	.	.	.	.	.	(1cc	re-
=83	=83	=83	=83	=83	=83	=83	=83	=83	=83	=83-	=83
2.FF/	.	2.FF/	-quit	1F	-quit	2a\	-li-	1a,<	-plum	.	.
!	!	!	!	!	!	!	!	!	!	!LO:SIC:v:t=custos cc	!
.	.	.	.	.	.	2a\	-qvit	.	.	2dd\)	.
4GG/	.	4GG/	.	.	.	.	.	.	.	.	.
!	!	!	!	!	!	!	!	!	!	!LO:LB:g=original	!
=84	=84	=84	=84	=84	=84	=84	=84	=84	=84	=84	=84
!	!	!	!	!	!	!LO:N:vis=1	!	!	!	!	!
2AA/	.	2AA/	e-	0E	e-	0e	e-	2a\	re-	4cc#X\	-li-
.	.	.	.	.	.	.	.	.	.	4cc#\	-quit
!	!	!	!	!	!	!	!	!	!	!LO:TX:t=P:problem:przekreślona synkopowana wartość	!
2GG/	.	2GG/	.	.	.	.	.	2b-X\	-li-	(1dd	e-
=85	=85	=85	=85	=85	=85	=85	=85	=85	=85	=85-	=85
1AA	.	1AA	.	.	.	.	.	1a	-quit	.	.
.	.	.	.	.	.	.	.	.	.	2cc#X\)	.
=86	=86	=86	=86	=86	=86	=86	=86	=86	=86	=86	=86
!	!	!	!	!	!	!LO:TX:t=P:problem:fermata na kresce	!	!	!	!LO:TX:t=P:problem:fermata na kresce	!
!	!	!	!	!	!	!	!	!	!	!LO:N:vis=1	!
0D;	.	0D;l	-is.	0D;l	-is.	0f;l	-is.	1a	Je-	0dd;	-is.
=87	=87	=87	=87	=87	=87	=87	=87	=87	=87	=87-	=87
!	!	!	!	!	!	!	!	!LO:TX:t=P:problem:fermata na kresce	!	!	!
!	!	!	!	!	!	!	!	!LO:N:vis=0	!	!	!
.	.	.	.	.	.	.	.	1a;l	-sus.	.	.
!LO:LB:g=original	!	!LO:LB:g=original	!	!LO:LB:g=original	!	!	!	!	!	!	!
=88||	=88||	=88||	=88||	=88||	=88||	=88||	=88||	=88||	=88||	=88||	=88||
!LO:TX:a:t=Intonatio .	!	!LO:TX:a:t=Intonatio&colon;	!	!	!	!LO:TX:a:t=Magnus D(omi)n(us).\n Tacet..	!	!LO:TX:a:t=Magnus D(omi)n(us). \nTacet.	!	!LO:TX:a:t=Magnus \nTacet .	!
F	Ma-	F	Ma-	F	Ma-	.	.	.	.	.	.
*lig	*	*lig	*	*lig	*	*	*	*	*	*	*
G	-gn(us)	G	-gnus	G	-gnus	.	.	.	.	.	.
A	.	A	.	A	.	.	.	.	.	.	.
*Xlig	*	*Xlig	*	*Xlig	*	*	*	*	*	*	*
A	Do-	A	Do-	A	Do-	.	.	.	.	.	.
A	-mi-	A	-mi-	A	-mi-	.	.	.	.	.	.
A	-n(us)	A	-nus	A	-nus	.	.	.	.	.	.
A	et	A	et	A	et	.	.	.	.	.	.
A	lau-	A	lau-	Ayy	[-da-]	.	.	.	.	.	.
*lig	*	*	*	*	*	*	*	*	*	*	*
A	-da-	A	-da-	A	lau-	.	.	.	.	.	.
B-X	.	B-X	.	B-X	-da-	.	.	.	.	.	.
*Xlig	*	*	*	*	*	*	*	*	*	*	*
A	-bi-	A	-bi-	A	-bi-	.	.	.	.	.	.
A	-lis	A	-lis	A	-lis	.	.	.	.	.	.
*lig	*	*	*	*lig	*	*	*	*	*	*	*
A	ni-	A	ni-	A	ni-	.	.	.	.	.	.
G	.	G	.	G	.	.	.	.	.	.	.
*Xlig	*	*	*	*Xlig	*	*	*	*	*	*	*
*lig	*	*	*	*lig	*	*	*	*	*	*	*
G	-mis.	G	-mis.	G	-mis.	.	.	.	.	.	.
!LO:TX:b:t=V&colon;S&colon;	!	!LO:TX:b:t=V&colon;S&colon;	!	!	!	!	!	!	!	!	!
!LO:SIC:v:t=custos C	!	!LO:SIC:v:t=custos C	!	!	!	!	!	!	!	!	!
!LO:SIC:v:t=custos C	!	!LO:SIC:v:t=custos C	!	!	!	!	!	!	!	!	!
F	.	F	.	F	.	.	.	.	.	.	.
*Xlig	*	*	*	*Xlig	*	*	*	*	*	*	*
!LO:PB:g=original	!	!LO:PB:g=original	!	!	!	!	!	!LO:LB:g=original	!	!	!
=89||	=89||	=89||	=89||	=89||	=89||	=89||	=89||	=89||	=89||	=89||	=89||
*M2/2	*	*M2/2	*	*M2/2	*	*M2/2	*	*M2/2	*	*M2/2	*
*met(C|)	*	*met(C|)	*	*met(C|)	*	*met(C|)	*	*met(C|)	*	*met(C|)	*
!LO:TX:b:t=In Civitate .	!	!	!	!	!	!	!	!LO:TX:a:t=1.	!	!	!
0C	.	0C	In	0G	In	0e	In	1r	.	2g\	In
!	!	!	!	!	!	!	!	!	!	!LO:TX:t=P:problem:przekreślona synkopowana wartość	!
.	.	.	.	.	.	.	.	.	.	1cc	Ci-
=90	=90	=90	=90	=90	=90	=90	=90	=90-	=90	=90-	=90
.	.	.	.	.	.	.	.	2r	.	.	.
.	.	.	.	.	.	.	.	2e/	In	2cc\	-vi-
=91	=91	=91	=91	=91	=91	=91	=91	=91	=91	=91	=91
[y1F	.	[y1F	Ci-	[y1A	Ci-	[y1f	Ci-	[y1a	Ci-	[y1cc	-ta-
=92	=92	=92	=92	=92	=92	=92	=92	=92	=92	=92	=92
!LO:N:vis=xstem:cue	!	!LO:N:vis=xstem:cue	!	!LO:N:vis=xstem:cue	!	!LO:N:vis=xstem:cue	!	!LO:N:vis=xstem:cue	!	!LO:N:vis=xstem:cue	!
2F\]	.	2F\]	.	2A\]	.	2f\]	.	2a\]	.	2cc\]	.
!	!	!	!	!LO:SIC:v:t=custos A	!	!	!	!	!	!	!
2F\	.	2F\	-vi-	2A/	-vi-	2f\	-Vi-	2a\	-vi-	2cc\	-te
!	!	!	!	!LO:LB:g=original	!	!	!	!	!	!	!
=93	=93	=93	=93	=93	=93	=93	=93	=93	=93	=93	=93
!	!	!	!	!	!	!LO:SIC:v:t=custos f	!	!	!	!	!
[y1F	.	[y1F	-ta-	1A	-ta-	[1f	-ta-	[y1a	-ta-	1cc	De-
!	!	!	!	!	!	!LO:LB:g=original	!	!	!	!	!
=94	=94	=94	=94	=94	=94	=94	=94	=94	=94	=94	=94
!LO:N:vis=xstem:cue	!	!LO:N:vis=xstem:cue	!	!	!	!	!	!LO:N:vis=xstem:cue	!	!LO:SIC:v:t=custos dd	!
2F\]	.	2F\]	.	1A	-te	2f\]	.	2a\]	.	1a	-i
!	!	!	!	!	!	!LO:SIC:v:s=2e\	!	!	!	!LO:TX:b:t=V&colon; S&colon;	!
2C#X/	.	2C#X/	-te	.	.	2d\	-te	2g/	-te	.	.
!	!	!	!	!	!	!	!	!	!	!LO:PB:g=original	!
=95	=95	=95	=95	=95	=95	=95	=95	=95	=95	=95	=95
[y1D	.	[y1D	De-	1A	De-	[y1c	De-	2f/	De-	2dd\	nos-
.	.	.	.	.	.	.	.	2d/	.	[y2ff\	.
=96	=96	=96	=96	=96	=96	=96	=96	=96	=96	=96	=96
!LO:N:vis=xstem:cue	!	!LO:N:vis=xstem:cue	!	!	!	!LO:N:vis=xstem:cue	!	!	!	!LO:N:vis=xstem:cue	!
2D\]	.	2D\]	.	1A	-i	2c\]	.	1a	.	4ff\]	.
.	.	.	.	.	.	.	.	.	.	4ee\	.
2AA/	.	2AA/	-i	.	.	2e\	-i	.	.	4dd\	.
.	.	.	.	.	.	.	.	.	.	4cc#X\	.
=97	=97	=97	=97	=97	=97	=97	=97	=97	=97	=97	=97
1D	.	1D	nos-	1A	nos-	1f	nos-	2a,<\	-i	2dd\	.
.	.	.	.	.	.	.	.	2dd\	in	[y2a\	.
=98	=98	=98	=98	=98	=98	=98	=98	=98	=98	=98	=98
!	!	!	!	!	!	!LO:TX:t=P:problem:oddech jako rozdzielacz słów:global	!	!	!	!LO:N:vis=xstem:cue	!
1AA	.	1AA	-tri	1A	-tri	2e,<\	-tri	2cc#X\	mon-	4a\]	.
.	.	.	.	.	.	.	.	.	.	4b\	.
.	.	.	.	.	.	2a\	in	2a\	-te	2cc#X\	.
=99	=99	=99	=99	=99	=99	=99	=99	=99	=99	=99	=99
2r	.	2r	.	1A	in	2f\	mon-	4a\	Sanc-	1dd	.
.	.	.	.	.	.	.	.	4g\	.	.	.
2D/	.	2D/	in	.	.	2d\	-te	4f\	.	.	.
.	.	.	.	.	.	.	.	4g\	.	.	.
=100	=100	=100	=100	=100	=100	=100	=100	=100	=100	=100	=100
[y1D	.	[y1D	mon-	1A	mon-	[y1f	Sanc-	1a	.	1a	-tri,
=101	=101	=101	=101	=101	=101	=101	=101	=101	=101	=101	=101
!LO:N:vis=xstem:cue	!	!LO:N:vis=xstem:cue	!	!	!	!LO:N:vis=xstem:cue	!	!	!	!	!
2D\]	.	2D\]	.	1A	-te	2f\]	.	1a	-to	2r	.
2C/	.	2C/	-te	.	.	2e\	-to	.	.	2a\	in
=102	=102	=102	=102	=102	=102	=102	=102	=102	=102	=102	=102
!	!	!	!	!	!	!	!	!LO:SIC:v:t=custos cc	!	!	!
!	!	!	!	!	!	!	!	!LO:TX:a:t=1.	!	!	!
2D/	.	1D	Sanc-	1A	Sanc-	(4d\	e-	1r	.	2f/	mon-
.	.	.	.	.	.	4e\)	.	.	.	.	.
!	!	!	!	!	!	!LO:TX:t=P:problem:przekreślona synkopowana wartość	!	!LO:TX:b:t=V&colon;S&colon;	!	!	!
2D/	.	.	.	.	.	1f	.	.	.	2d/	-te
!	!	!	!	!	!	!	!	!LO:LB:g=original	!	!	!
=103	=103	=103	=103	=103	=103	=103-	=103	=103-	=103	=103	=103
2BB/	.	2BB/	-to	(>1G	-to	.	.	2r	.	1g	Sanc-
2C/	.	2C/	e-	.	.	2e\	.	2cc\	in	.	.
=104	=104	=104	=104	=104	=104	=104	=104	=104	=104	=104	=104
!LO:SIC:v:t=custos C	!	!	!	!	!	!	!	!	!	!	!
1FF	.	1FF	-ius	1F)	.	2f,<\	-jus	2a\	mon-	2a\	-to
.	.	.	.	.	.	2a\	in	2f/	-te	2ff\	in
!LO:LB:g=original	!	!	!	!	!	!	!	!	!	!	!
=105	=105	=105	=105	=105	=105	=105	=105	=105	=105	=105	=105
!	!	!LO:SIC:v:t=custos CC	!	!	!	!	!	!	!	!	!
2r	.	2r	.	(1G	e-	2g\	mon-	[1cc	Sanc-	2ee\	mon-
!	!	!LO:LB:g=original	!	!	!	!LO:TX:t=P:problem:przekreślona synkopowana wartość	!	!	!	!	!
2C/	.	2C/	in	.	.	1e	-te	.	.	2cc\	-te
=106	=106	=106	=106	=106	=106	=106-	=106	=106	=106	=106	=106
!	!	!	!	!	!	!	!	!LO:N:vis=xstem:cue	!	!	!
2AA/	.	2AA/	mon-	1A)	.	.	.	2cc\]	.	1cc	Sanc-
2FF/	.	2FF/	-te	.	.	2f\	Sanc-	[2a\	.	.	.
=107	=107	=107	=107	=107	=107	=107	=107	=107	=107	=107	=107
!	!	!	!	!	!	!LO:TX:b:t=V&colon; S&colon;	!	!LO:N:vis=xstem:cue	!	!	!
!	!	!	!	!	!	!LO:SIC:v:t=custos d	!	!	!	!	!
2F\	.	2F\	Sanc-	0G	.	2c#X/	-to	4a\]	.	1a	-to
.	.	.	.	.	.	.	.	4g/	.	.	.
!	!	!	!	!	!	!LO:PB:g=original	!	!	!	!	!
!	!	!	!	!	!	!LO:TX:t=P:problem:przekreślona synkopowana wartość	!	!	!	!	!
2D/	.	2D/	-to	.	.	1d	e-	2f/	-to	.	.
=108	=108	=108	=108	=108	=108	=108-	=108	=108	=108	=108	=108
1AA	.	1A	e-	.	.	.	.	1e	e-	1a	e-
.	.	.	.	.	.	2c#X/	.	.	.	.	.
=109	=109	=109	=109	=109	=109	=109	=109	=109	=109	=109	=109
!	!	!	!	!LO:TX:b:t=V&colon; S&colon;	!	!	!	!	!	!	!
!	!	!	!	!LO:SIC:v:t=custos G	!	!	!	!	!	!	!
!	!	!	!	!	!	!	!	!	!	!LO:TX:t=P:problem:fermata na kresce	!
0Dl	.	0D;l	-ius .	0G;l	-ius.	0d;l	-ius	0f#X;l	-ius.	0al;	-ius
!	!	!	!	!LO:PB:g=original	!	!	!	!	!	!LO:LB:g=original	!
=110||	=110||	=110||	=110||	=110||	=110||	=110||	=110||	=110||	=110||	=110||	=110||
*M2/2	*	*M2/2	*	*M2/2	*	*M2/2	*	*M2/2	*	*M2/2	*
*met(C|)	*	*met(C|)	*	*met(C|)	*	*met(C|)	*	*met(C|)	*	*met(C|)	*
[y1G	.	[y1G	Ve-	1G	Ve-	1d	Ve-	[1b	Ve-	1b	Ve-
=111	=111	=111	=111	=111	=111	=111	=111	=111	=111	=111	=111
!LO:N:vis=xstem:cue	!	!LO:N:vis=xstem:cue	!	!	!	!	!	!LO:N:vis=xstem:cue	!	!	!
2G\]	.	2G\]	.	1B	-nit	1d	-nit	2b\]	.	(2g/	-nit
2F\	.	2F\	-nit	.	.	.	.	2a\	-nit	2a\)	.
=112	=112	=112	=112	=112	=112	=112	=112	=112	=112	=112	=112
1E	.	1E	Je-	(2B\	Je-	1e	Je-	1g	Je-	2b\	Je-
.	.	.	.	2c\)	.	.	.	.	.	(4a\	.
.	.	.	.	.	.	.	.	.	.	4g\)	.
=113	=113	=113	=113	=113	=113	=113	=113	=113	=113	=113	=113
2D/	.	2D/	-sus	2d\	-sus	2f#X\	-sus	2f#X,</	-sus	2a,<\	-sus
2G\	.	2G\	ad	2d\	ad	2g\	ad	2b\	ad	2b\	ad
=114	=114	=114	=114	=114	=114	=114	=114	=114	=114	=114	=114
2c\	.	2.c\	Si-	2.e\	Si-	2g\	Si-	1g	Si-	2cc\	Si-
2B\	.	.	.	.	.	([y2g\	-mo-	.	.	2g/	-mo-
.	.	4B\	.	4d\	.	.	.	.	.	.	.
=115	=115	=115	=115	=115	=115	=115	=115	=115	=115	=115	=115
!	!	!	!	!	!	!LO:N:vis=xstem:cue	!	!	!	!	!
1A	.	1A	-mo-	1c	-mo-	2g\]	.	2cc\	-mo-	2a,<\	-nem
!	!	!	!	!	!	!	!	!LO:SIC:v:t=custos dd	!	!	!
.	.	.	.	.	.	2f#X\)	.	2cc\	-nem	2a\	Pa-
!	!	!	!	!	!	!	!	!LO:LB:g=original	!	!	!
=116	=116	=116	=116	=116	=116	=116	=116	=116	=116	=116	=116
1G	.	1G	-nem	2c\	-nem	1g	-nem	1dd	Pa-	2d,</	-trum,
.	.	.	.	2B\	Pa-	.	.	.	.	2dd\	et
=117	=117	=117	=117	=117	=117	=117	=117	=117	=117	=117	=117
!	!	!	!	!LO:TX:t=P:problem:wykreślona kreska taktowa	!	!	!	!	!	!	!
2C/	.	2C/	Pe-	2c\	-trum,	2g\	Pe-	2cc,<\	-trum	1ee	di-
!	!	!LO:SIC:v:t=custos G	!	!	!	!	!	!	!	!	!
2C/	.	2C/	-trum	2c\	et	2g\	-trum	2cc\	et	.	.
!	!	!LO:LB:g=original	!	!	!	!	!	!	!	!	!
=118	=118	=118	=118	=118	=118	=118	=118	=118	=118	=118	=118
!LO:SIC:v:t=custos F	!	!	!	!	!	!	!	!	!	!	!
1G	.	1G	et	2d\	di-	1g	et	2b\	di-	2dd\	-xit
.	.	.	.	2B\	-xit	.	.	2g/	-xit	2dd\	e-
!LO:LB:g=original	!	!	!	!	!	!	!	!	!	!	!
=119	=119	=119	=119	=119	=119	=119	=119	=119	=119	=119	=119
2F#X\	.	2F#X\	di-	2A/	e-	1d	di-	2a\	e-	2.dd\	-i
!	!	!	!	!LO:TX:t=P:problem:przekreślona synkopowana wartość	!	!	!	!	!	!	!
1G	.	1G	-xit	1B	.	.	.	2g/	-i	.	.
.	.	.	.	.	.	.	.	.	.	4cc\	.
=120-	=120	=120-	=120	=120-	=120	=120	=120	=120	=120	=120	=120
.	.	.	.	.	.	2d\	-xit	1g	Pe-	2b\	Pe-
!	!	!	!	!	!	!LO:SIC:v:t=custos f	!	!	!	!	!
2E\	.	2E\	ei	2c\	-i	2e\	e-	.	.	4a\	.
.	.	.	.	.	.	.	.	.	.	4g\	.
!	!	!	!	!	!	!LO:LB:g=original	!	!	!	!	!
=121	=121	=121	=121	=121	=121	=121	=121	=121	=121	=121	=121
!	!	!	!	!	!	!LO:TX:t=P:problem:przekreślona kreska taktowa	!	!	!	!	!
0D	.	1D	Pe-	0d	Pe-	2f#X\	-i	(2a\	.	2f#X/	.
!	!	!	!	!	!	!	!	!	!	!LO:TX:t=P:problem:przekreślona synkopowana wartość	!
.	.	.	.	.	.	[y2d\	Pe-	2b\)	.	1g	.
=122	=122	=122	=122	=122	=122	=122	=122	=122	=122	=122-	=122
!	!	!	!	!	!	!LO:N:vis=xstem:cue	!	!	!	!	!
.	.	1D	.	.	.	4d\]	.	1a	.	.	.
.	.	.	.	.	.	4e\	.	.	.	.	.
.	.	.	.	.	.	4f#X\	.	.	.	2f#X/	.
.	.	.	.	.	.	4e\	.	.	.	.	.
=123	=123	=123	=123	=123	=123	=123	=123	=123	=123	=123	=123
!LO:N:vis=0	!	!LO:N:vis=0	!	!LO:N:vis=0	!	!LO:N:vis=0	!	!LO:N:vis=0	!	!LO:TX:t=P:problem:fermata na kresce	!
1GG;l	.	1GG;l	-trus.	1B;l	-trus	1d;l	-trus.	1b;l	-trus.	1g;	-trus.
!	!	!	!	!LO:LB:g=original	!	!	!	!	!	!LO:LB:g=original	!
=124||	=124||	=124||	=124||	=124||	=124||	=124||	=124||	=124||	=124||	=124||	=124||
*clefC4	*	*	*	*	*	*	*	*	*	*	*
!LO:TX:a:t=Intonatio .	!	!LO:TX:a:i:t=Solo&colon;	!	!LO:TX:a:i:t=Intonatio.	!	!	!	!	!	!	!
!	!	!	!	!	!	!LO:TX:a:t=Domine \nTacet.	!	!LO:TX:a:t=Domine \nTacet.	!	!LO:TX:a:t=Domine \nTacet.	!
G	Do-	G	Do-	G	Do-	.	.	.	.	.	.
d	.	d	.	d	.	.	.	.	.	.	.
*lig	*	*	*	*	*	*	*	*	*	*	*
B	.	B	.	B	.	.	.	.	.	.	.
d	.	d	.	d	.	.	.	.	.	.	.
*Xlig	*	*	*	*	*	*	*	*	*	*	*
e	.	e	.	e	.	.	.	.	.	.	.
d	-mi-	d	-mi-	d	-mi-	.	.	.	.	.	.
d	-ne	d	-ne	d	-ne	.	.	.	.	.	.
d	tu	d	tu	d	tu	.	.	.	.	.	.
d	mi-	d	mi-	d	mi-	.	.	.	.	.	.
*lig	*	*lig	*	*lig	*	*	*	*	*	*	*
B	-hi	B	-hi	B	-hi	.	.	.	.	.	.
c	.	c	.	c	.	.	.	.	.	.	.
*Xlig	*	*Xlig	*	*Xlig	*	*	*	*	*	*	*
d	la-	d	la-	d	la-	.	.	.	.	.	.
*lig	*	*lig	*	*lig	*	*	*	*	*	*	*
A	-vas	A	-vas	A	-vas	.	.	.	.	.	.
!	!	!LO:TX:t=P:problem:kreska taktowa	!	!	!	!	!	!	!	!	!
B	.	B	.	B	.	.	.	.	.	.	.
*Xlig	*	*Xlig	*	*Xlig	*	*	*	*	*	*	*
G/	pe-	G	pe-	G	pe-	.	.	.	.	.	.
!LO:SIC:v:t=custos G	!	!	!	!	!	!	!	!	!	!	!
G	-des.	G;	-des.	G	-des.	.	.	.	.	.	.
!LO:LB:g=original	!	!LO:LB:g=original	!	!	!	!	!	!	!	!	!
=125||	=125||	=125||	=125||	=125||	=125||	=125||	=125||	=125||	=125||	=125||	=125||
*M2/2	*	*M2/2	*	*M2/2	*	*M2/2	*	*M2/2	*	*M2/2	*
*met(C|)	*	*met(C|)	*	*met(C|)	*	*met(C|)	*	*met(C|)	*	*met(C|)	*
!LO:TX:b:t=Respondit Jesus&colon;	!	!LO:TX:a:t=6.	!	!	!	!	!	!	!	!	!
0G	.	00r	.	0G	Res-	0g	Res-	1g	Res-	2g/	Res-
!	!	!	!	!	!	!	!	!	!	!LO:TX:t=P:problem:przekreślona synkopowana wartość	!
.	.	.	.	.	.	.	.	.	.	1b	-pon-
=126	=126	=126	=126	=126	=126	=126	=126	=126	=126	=126-	=126
.	.	.	.	.	.	.	.	1g	-pon-	.	.
.	.	.	.	.	.	.	.	.	.	2cc#X\	-dit
=127	=127	=127	=127	=127	=127	=127	=127	=127	=127	=127	=127
!	!	!	!	!	!	!	!	!LO:SIC:v:t=custos b	!	!	!
1B	.	.	.	1B	-pon-	1g	-pon-	2g/	-dit	2dd\	Je-
!	!	!	!	!	!	!	!	!LO:LB:g=original	!	!	!
.	.	.	.	.	.	.	.	2b\	Je-	2dd\	-sus
=128	=128	=128	=128	=128	=128	=128	=128	=128	=128	=128	=128
1c	.	.	.	1c	-dit	1e	-dit	2g,</	-sus	4ee\	et
.	.	.	.	.	.	.	.	.	.	4dd\	.
!	!	!	!	!	!	!	!	!LO:TX:t=P:problem:przekreślona synkopowana wartość	!	!	!
.	.	.	.	.	.	.	.	1g	et	4cc\	.
.	.	.	.	.	.	.	.	.	.	4b\	.
=129	=129	=129	=129	=129	=129	=129	=129	=129-	=129	=129	=129
1d	.	0r	.	1d	Je-	1d	Je-	.	.	[y1a	di-
.	.	.	.	.	.	.	.	(4f#X/	.	.	.
.	.	.	.	.	.	.	.	4e/)	.	.	.
=130	=130	=130	=130	=130	=130	=130	=130	=130	=130	=130	=130
!	!	!	!	!LO:SIC:v:t=custos c	!	!	!	!	!	!LO:N:vis=xstem:cue	!
1d	.	.	.	1d	-sus	1d	-sus	1f#X	di-	2a\]	.
.	.	.	.	.	.	.	.	.	.	2b\	-xit,
!	!	!	!	!LO:LB:g=original	!	!	!	!	!	!	!
=131	=131	=131-	=131	=131	=131	=131	=131	=131	=131	=131	=131
2c\	.	2r	.	1c	et	1e	et	0g	-xit	(2cc\	et
*clefF4	*	*	*	*	*	*	*	*	*	*	*
2C/	.	1C	Res-	.	.	.	.	.	.	2g/)	.
=132	=132	=132-	=132	=132	=132	=132	=132	=132	=132	=132	=132
2C/	.	.	.	1e	di-	[<1c	.	.	.	1g	di-
2E\	.	2E\	-pon-	.	.	.	.	.	.	.	.
=133	=133	=133	=133	=133	=133	=133	=133	=133	=133	=133	=133
!	!	!	!	!	!	!	!	!LO:TX:a:t=2.	!	!	!
2F\	.	2F\	-dit	0d	-xit,	2c/]	.	0r	.	2a\	-xit
!	!	!	!	!	!	!	!	!	!	!LO:TX:t=P:problem:przekreślona synkopowana wartość	!
1G	.	1G	Je-	.	.	4B/	.	.	.	1b	Je-
.	.	.	.	.	.	4A/	.	.	.	.	.
=134-	=134	=134-	=134	=134	=134	=134	=134	=134	=134	=134-	=134
.	.	.	.	.	.	2B,</	.	.	.	.	.
!	!	!	!	!	!	!LO:SIC:v:t=custos G	!	!	!	!	!
2G\	.	2G\	-sus	.	.	2B/	di-	.	.	2b\	-sus
!	!	!	!	!	!	!LO:LB:g=original	!	!	!	!	!
=135	=135	=135	=135	=135	=135	=135	=135	=135-	=135	=135	=135
1C	.	1C	et	1e	Si	1G	-xit	2r	.	[y1cc	et
.	.	.	.	.	.	.	.	2cc\	Si	.	.
=136	=136	=136	=136	=136	=136	=136	=136	=136	=136	=136	=136
!	!	!	!	!	!	!	!	!	!	!LO:N:vis=xstem:cue	!
1G	.	1G	di-	1d	non	2r	.	1dd	non	2cc\]	.
.	.	.	.	.	.	2d\	Si	.	.	2b\	di-
=137	=137	=137	=137	=137	=137	=137	=137	=137	=137	=137	=137
!LO:SIC:v:t=custos D	!	!	!	!	!	!	!	!	!	!LO:N:vis=xstem	!
1GG	.	1GG	-xit	1B	la-	2e\	non	1dd	la-	4b\	.
.	.	.	.	.	.	.	.	.	.	4cc\	.
.	.	.	.	.	.	2g\	la-	.	.	4dd\	.
!	!	!	!	!	!	!	!	!	!	!LO:SIC:v:t=custos b	!
.	.	.	.	.	.	.	.	.	.	4cc\	.
!LO:LB:g=original	!	!	!	!	!	!	!	!	!	!LO:LB:g=original	!
=138	=138	=138	=138	=138	=138	=138	=138	=138	=138	=138	=138
1D	.	1D	Si-	1d	-ve-	2g\	-va-	1dd	-ve-	2b\	.
.	.	.	.	.	.	2f\	-ve-	.	.	2a\	.
=139	=139	=139	=139	=139	=139	=139	=139	=139	=139	=139	=139
2E\	.	2E\	-non	1c	-ro	1e	-ro	2g,</	-ro	2a\	-xit
2F#X\	.	2F#X\	la-	.	.	.	.	2a\	ti-	2r	.
=140	=140	=140	=140	=140	=140	=140	=140	=140	=140	=140	=140
!	!	!	!	!	!	!	!	!	!	!LO:TX:a:t=2.	!
1G	.	1G	-ve-	1B	ti-	2d\	ti-	(2.b\	-bi	0r	.
.	.	.	.	.	.	2g\	-bi	.	.	.	.
.	.	.	.	.	.	.	.	4cc\)	.	.	.
=141	=141	=141	=141	=141	=141	=141	=141	=141	=141	=141	=141
1D	.	1D	-ro	1A	-bi	(2g\	pe-	(1dd	pe-	.	.
.	.	.	.	.	.	2f#X\)	.	.	.	.	.
=142	=142	=142	=142	=142	=142	=142	=142	=142	=142	=142-	=142
[y1E	.	[y1E	ti-	1G	pe-	0g	-des	1g)	.	2r	.
.	.	.	.	.	.	.	.	.	.	2b\	Si
=143	=143	=143	=143	=143	=143	=143	=143	=143	=143	=143	=143
!LO:N:vis=xstem:cue	!	!LO:N:vis=xstem:cue	!	!	!	!	!	!LO:SIC:v:t=custos g	!	!	!
2E\]	.	2E\]	.	0G	-des	.	.	0g	-des	2cc\	non
2BB/	.	2BB/	-bi	.	.	.	.	.	.	2dd\	la-
=144	=144	=144	=144	=144	=144	=144	=144	=144	=144	=144	=144
2.C/	.	2.C/	pe-	.	.	2r	.	.	.	2ee\	-va-
.	.	.	.	.	.	2e\	Si	.	.	2cc\	-ve-
!	!	!LO:SIC:v:t=custos A	!	!	!	!	!	!	!	!	!
4BB/	.	4BB/	.	.	.	.	.	.	.	.	.
!	!	!LO:LB:g=original	!	!	!	!	!	!LO:LB:g=original	!	!	!
=145	=145	=145	=145	=145	=145	=145	=145	=145	=145	=145	=145
!	!	!	!	!	!	!	!	!LO:TX:a:t=3.	!	!	!
2AA/	.	2AA/	.	1A	non	2e\	non	0r	.	2ee\	-ro
2D/	.	2D/	.	.	.	2f#X\	la-	.	.	[2dd\	ti-
=146	=146	=146	=146	=146	=146	=146	=146	=146	=146	=146	=146
1GG	.	1GG	-des	1G	ha-	2g\	-va-	.	.	2.dd\]	.
.	.	.	.	.	.	2e\	-ve-	.	.	.	.
.	.	.	.	.	.	.	.	.	.	(8cc\L	-bi
.	.	.	.	.	.	.	.	.	.	8b\J)	.
=147	=147	=147	=147	=147	=147	=147	=147	=147	=147	=147	=147
!	!	!	!	!LO:SIC:v:s=1F#:t=lub A	!	!	!	!	!	!	!
2r	.	2r	.	(>1F	-be-	(4f#X\	-ro	1r	.	2a\	pe-
.	.	.	.	.	.	4g,<\)	.	.	.	.	.
!	!	!	!	!	!	!	!	!	!	!LO:TX:t=P:problem:przekreślona synkopowana wartość	!
2D/	.	2D/	non	.	.	(4a\	ti-	.	.	(1dd	.
.	.	.	.	.	.	4f#\)	.	.	.	.	.
=148	=148	=148	=148	=148	=148	=148	=148	=148-	=148	=148	=148
!	!	!	!	!	!	!LO:SIC:v:t=custos d	!	!	!	!	!
2E\	.	2E\	ha-	1E)	-bis	1g	.	2r	.	.	.
1G	.	1G	-be-	.	.	.	.	2g/	non	2cc#X\)	.
!	!	!	!	!	!	!LO:LB:g=original	!	!	!	!	!
=149-	=149	=149-	=149	=149	=149	=149	=149	=149	=149	=149	=149
.	.	.	.	1D	.	1d	-bi	2a\	ha-	1dd	-des
!	!	!	!	!	!	!	!	!LO:TX:t=P:problem:przekreślona synkopowana wartość	!	!	!
2F\	.	2F\	-bis	.	.	.	.	1a	-be-	.	.
=150	=150	=150	=150	=150	=150	=150	=150	=150-	=150	=150	=150
!	!	!	!	!LO:SIC:v:t=custos G	!	!	!	!	!	!	!
1D	.	1D	par-	1F	par-	1d	pe-	.	.	2r	.
.	.	.	.	.	.	.	.	2b\	.	2b\	non
!	!	!	!	!LO:LB:g=original	!	!	!	!	!	!	!
=151	=151	=151	=151	=151	=151	=151	=151	=151	=151	=151	=151
2.C/	.	2.C/	.	(1G	-tem	1e	-des	2g,</	-bis	2cc\	ha-
.	.	.	.	.	.	.	.	[y2cc\	per-	[y2ee\	-be-
4BB/	.	4BB/	.	.	.	.	.	.	.	.	.
=152	=152	=152	=152	=152	=152	=152	=152	=152	=152	=152	=152
!	!	!	!	!	!	!	!	!LO:N:vis=xstem:cue	!	!LO:N:xstem:cue	!
1AA	.	1AA	-tem	1A)	.	2r	.	4cc\]	.	4ee\]	.
.	.	.	.	.	.	.	.	4dd\	.	4dd\	.
.	.	.	.	.	.	2c/	non	2ee\	.	4cc\	.
.	.	.	.	.	.	.	.	.	.	4b\	.
=153	=153	=153	=153	=153	=153	=153	=153	=153	=153	=153	=153
!LO:SIC:v:t=custos C	!	!	!	!	!	!	!	!	!	!LO:SIC:v:t=custos a	!
2D/	.	2D/	me-	00A	me-	2d\	ha-	2dd,<\	-tem	1a	-bis
!LO:LB:g=original	!	!	!	!	!	!	!	!LO:TX:t=P:problem:przekreślona synkopowana wartość	!	!	!
2C/	.	2C/	.	.	.	2e\	-be-	1a	me-	.	.
!	!	!	!	!	!	!	!	!	!	!LO:LB:g=original	!
=154	=154	=154	=154	=154	=154	=154	=154	=154-	=154	=154	=154
0.D	.	[0Dl	.	.	.	2d\	-bis	.	.	(2a\	par-
!	!	!	!	!	!	!	!	!	!	!LO:TX:t=P:problem:przekreślona synkopowana wartość	!
.	.	.	.	.	.	2g\	par-	2g/	-cum	1cc)	.
=155	=155	=155	=155	=155	=155	=155	=155	=155	=155	=155-	=155
.	.	.	.	.	.	2f#X\	-tem	2a\	par-	.	.
!	!	!	!	!	!	!LO:TX:t=P:problem:przekreślona synkopowana wartość	!	!	!	!	!
.	.	.	.	.	.	1g	me-	2g/	-tem	2a\	-tem
=156	=156	=156	=156	=156	=156	=156-	=156	=156	=156	=156	=156
.	.	1D]	.	.	.	.	.	(2a\	me-	1a	me-
.	.	.	.	.	.	2f#X\	.	2dd\)	.	.	.
=157	=157	=157	=157	=157	=157	=157	=157	=157	=157	=157	=157
0GG;l	.	0GG;l	-cum.	0G;l	-cum.	0gl	-cum.	0dd;l	-cum.	0b;l	-cum.
=158||	=158||	=158||	=158||	=158||	=158||	=158||	=158||	=158||	=158||	=158||	=158||
!LO:TX:a:t=Intonatio.	!	!LO:TX:a:t=Intona&colon;.	!	!LO:TX:a:i:t=Intonatio.	!	!LO:TX:a:t=Audite \nTacet.	!	!LO:TX:a:t=Audite \nTacet.	!	!LO:TX:a:t=Audite \nTacet.	!
G	Au-	G	Au-	G	Au-	.	.	.	.	.	.
F#X	-di-	F#X	.	F#X	-di-	.	.	.	.	.	.
*lig	*	*lig	*	*lig	*	*	*	*	*	*	*
G	.	G	-di-	G	-te	.	.	.	.	.	.
A	.	A	.	A	.	.	.	.	.	.	.
*Xlig	*	*Xlig	*	*Xlig	*	*	*	*	*	*	*
!	!	!LO:SIC:v:t=custos A	!	!LO:SIC:v:t=custos A	!	!	!	!	!	!	!
A	-te	A	-te	Ayy	.	.	.	.	.	.	.
!	!	!LO:LB:g=original	!	!	!	!	!	!	!	!	!
*lig	*	*lig	*	*lig	*	*	*	*	*	*	*
A	haec	A	haec	A	haec	.	.	.	.	.	.
G	.	G	.	G	.	.	.	.	.	.	.
*Xlig	*	*Xlig	*	*Xlig	*	*	*	*	*	*	*
*lig	*	*lig	*	*lig	*	*	*	*	*	*	*
G	om-	G	om-	G	om-	.	.	.	.	.	.
B	.	B	.	B	.	.	.	.	.	.	.
*Xlig	*	*Xlig	*	*Xlig	*	*	*	*	*	*	*
B	-nes	B	-nes	B	-nes	.	.	.	.	.	.
*lig	*	*lig	*	*lig	*	*	*	*	*	*	*
A	gen-	A	gen-	A	gen-	.	.	.	.	.	.
B	.	B	.	B	.	.	.	.	.	.	.
*Xlig	*	*Xlig	*	*Xlig	*	*	*	*	*	*	*
A	-tes.	A	-tes.	A;	-tes.	.	.	.	.	.	.
!	!	!	!	!	!	!	!	!LO:LB:g=original	!	!	!
=159||	=159||	=159||	=159||	=159||	=159||	=159||	=159||	=159||	=159||	=159||	=159||
*M2/2	*	*M2/2	*	*M2/2	*	*M2/2	*	*M2/2	*	*M2/2	*
*met(C|)	*	*met(C|)	*	*met(C|)	*	*met(C|)	*	*met(C|)	*	*met(C|)	*
!LO:TX:b:t=Auribus	!	!	!	!	!	!	!	!	!	!	!
[y1D	.	[y1D	Au-	0r	.	[y1f	Au-	[y1a	Au-	2.dd\	Au-
.	.	.	.	.	.	.	.	.	.	4ee\	-ri-
=160	=160	=160	=160	=160	=160	=160	=160	=160	=160	=160	=160
!LO:N:vis=xstem:cue	!	!LO:N:vis=xstem:cue	!	!	!	!LO:N:vis=xstem:cue	!	!LO:N:vis=xdtem:cue	!	!	!
2D\]	.	2D\]	.	.	.	2f\]	.	2a\]	.	2ff,<\	-b(us)
!	!	!	!	!	!	!	!	!	!	!LO:SIC:v:s=[1cc#\	!
2C#X/	.	2C#X/	-ri-	.	.	2e\	-ti-	2a\	-ti-	[2cc\	per-
=161	=161	=161	=161	=161	=161	=161	=161	=161	=161	=161	=161
!LO:SIC:v:t=custos DD	!	!	!	!	!	!	!	!	!	!	!
!LO:SIC:v:s=1CC#	!	!LO:SIC:v:s=1C#	!	!	!	!LO:SIC:v:t=custos e	!	!LO:TX:a:t=2	!	!	!
1C	.	1C	-bus	0A	Au-	2e\	-bus	0a	-bus	2cc\]	.
!	!	!	!	!	!	!LO:LB:g=original	!	!	!	!	!
.	.	.	.	.	.	2e\	per-	.	.	2ee\	.
!LO:LB:g=original	!	!	!	!	!	!	!	!	!	!	!
=162	=162	=162	=162	=162	=162	=162	=162	=162	=162	=162	=162
!	!	!	!	!LO:SIC:v:t=custos G	!	!	!	!	!	!	!
1D	.	1D	per-	.	.	2.f\	-ci-	.	.	2.dd\	-ci-
.	.	.	.	.	.	4f\	-pi-	.	.	4b\	-pi-
!	!	!	!	!LO:LB:g=original	!	!	!	!	!	!	!
=163	=163	=163	=163	=163	=163	=163	=163	=163	=163	=163	=163
[y1E	.	[y1E	-ci-	1G	-ri-	2g,<\	-te	2r	.	1cc	-te
.	.	.	.	.	.	4g\	om-	2cc\	per-	.	.
.	.	.	.	.	.	4f\	.	.	.	.	.
=164	=164	=164	=164	=164	=164	=164	=164	=164	=164	=164	=164
!LO:N:vis=xstem:cue	!	!LO:N:vis=xstem:cue	!	!	!	!	!	!	!	!	!
2E\]	.	2E\]	.	(1A	-bus	4e\	.	2.ee\	-ci-	1cc	om-
.	.	.	.	.	.	4d\	.	.	.	.	.
2C/	.	2C/	-pi-	.	.	4c/	.	.	.	.	.
.	.	.	.	.	.	4B/	.	4dd\	-pi-	.	.
=165	=165	=165	=165	=165	=165	=165	=165	=165	=165	=165	=165
!	!	!	!	!LO:SIC:v:s=1c)	!	!	!	!	!	!	!
1F	.	1F	-te	1B)	.	1c	.	2cc\	-te	1a	-nes
.	.	.	.	.	.	.	.	[y2a\	om-	.	.
=166	=166	=166	=166	=166	=166	=166	=166	=166	=166	=166	=166
!	!	!	!	!	!	!	!	!LO:N:vis=xstem:cue	!	!	!
1D	.	1D	om-	1A	per-	1d	-nes	4a\]	.	2ff\	qui
.	.	.	.	.	.	.	.	8b\L	.	.	.
.	.	.	.	.	.	.	.	8cc\J	.	.	.
!	!	!	!	!	!	!	!	!LO:TX:t=P:problem:przekreślona synkopowana wartość	!	!LO:TX:t=P:problem:przekreślona synkopowana wartość	!
.	.	.	.	.	.	.	.	1dd	.	1ff	ha-
=167	=167	=167	=167	=167	=167	=167	=167	=167-	=167	=167-	=167
1AA	.	1A	-nes	[y1A	-ci-	2r	.	.	.	.	.
.	.	.	.	.	.	2a\	qui	4cc\	.	4ee\	.
.	.	.	.	.	.	.	.	4b\	.	4dd\	.
!	!	!	!	!	!	!	!	!	!	!LO:LB:g=original	!
=168	=168	=168	=168	=168	=168	=168	=168	=168	=168	=168	=168
!	!	!	!	!LO:N:vis=xstem:cue	!	!	!	!	!	!	!
2r	.	2r	.	2A\]	.	4e\	ha-	1cc	.	2ee\	.
.	.	.	.	.	.	4d\	.	.	.	.	.
!	!	!LO:SIC:v:t=custos G	!	!	!	!	!	!	!	!	!
2A\	.	2A\	qui	2A/	-pi-	4e\	.	.	.	2cc\	-bi-
.	.	.	.	.	.	4f\	.	.	.	.	.
!	!	!LO:LB:g=original	!	!	!	!	!	!	!	!	!
=169	=169	=169	=169	=169	=169	=169	=169	=169	=169	=169	=169
2.G\	.	2.G\	ha-	1B	-te	2g\	.	1b	-nes	1dd	-ta-
.	.	.	.	.	.	2d\	-bi-	.	.	.	.
4F\	.	4F\	.	.	.	.	.	.	.	.	.
=170	=170	=170	=170	=170	=170	=170	=170	=170	=170	=170	=170
4E\	.	4E\	.	1c	om-	4g\	-ta-	2r	.	1ee	-tis
4D\	.	4D\	.	.	.	4f\	.	.	.	.	.
2C/	.	2C/	-bi-	.	.	4e\	.	2g/	qui	.	.
.	.	.	.	.	.	8f\L	.	.	.	.	.
.	.	.	.	.	.	8g\J	.	.	.	.	.
=171	=171	=171	=171	=171	=171	=171	=171	=171	=171	=171	=171
[y1F	.	[y1F	-ta-	1A	-nes	[1f	.	4a\	ha-	(2cc\	or-
.	.	.	.	.	.	.	.	4g\	.	.	.
.	.	.	.	.	.	.	.	4f/	.	2a\)	.
!	!	!	!	!	!	!	!	!LO:SIC:v:t=custos a	!	!	!
.	.	.	.	.	.	.	.	4g/	.	.	.
!	!	!	!	!	!	!	!	!LO:LB:g=original	!	!	!
=172	=172	=172	=172	=172	=172	=172	=172	=172	=172	=172	=172
!LO:N:vis=xstem:cue	!	!LO:N:vis=xstem:cue	!	!	!	!LO:N:vis=xstem:cue	!	!	!	!	!
2F\]	.	2F\]	.	1A	qui	2f\]	.	4a\	.	1cc	.
.	.	.	.	.	.	.	.	4b\	.	.	.
2F\	.	2F\	-tis	.	.	2f\	-tis	4cc\	.	.	.
.	.	.	.	.	.	.	.	4dd\	.	.	.
=173	=173	=173	=173	=173	=173	=173	=173	=173	=173	=173	=173
1C	.	(1C	or-	1G	ha-	2e\	or-	4ee\	.	1cc	-bem
.	.	.	.	.	.	.	.	4cc\	.	.	.
.	.	.	.	.	.	4a\	.	4dd\	.	.	.
!	!	!	!	!	!	!LO:SIC:v:t=custos f	!	!	!	!	!
.	.	.	.	.	.	4g\	.	4ee\	.	.	.
!	!	!	!	!	!	!LO:LB:g=original	!	!	!	!	!
=174	=174	=174	=174	=174	=174	=174	=174	=174	=174	=174	=174
1D	.	1D)	.	1F	-bi-	4f\	.	2.ff\	.	2r	.
.	.	.	.	.	.	4e\	.	.	.	.	.
.	.	.	.	.	.	[2d\	.	.	.	2a\	qui
.	.	.	.	.	.	.	.	4ee\	-bi-	.	.
=175	=175	=175	=175	=175	=175	=175	=175	=175	=175	=175	=175
!	!	!	!	!	!	!LO:N:vis=xstem:cue	!	!	!	!	!
1GG	.	1GG	-bem	1G	-ta-	4d\]	.	2dd\	-ta-	2.b-X\	ha-
.	.	.	.	.	.	8e\L	.	.	.	.	.
.	.	.	.	.	.	8f\J	.	.	.	.	.
.	.	.	.	.	.	2g\	.	2ee\	-tis	.	.
.	.	.	.	.	.	.	.	.	.	4b-\	-bi-
=176	=176	=176	=176	=176	=176	=176	=176	=176	=176	=176	=176
1FF	.	1FF	qui	1A	-tis	2c/	-bem	4a\	or-	2a\	-ta-
.	.	.	.	.	.	.	.	4g\	.	.	.
.	.	.	.	.	.	2d\	qui	4a\	.	2f/	-tis
.	.	.	.	.	.	.	.	4b\	.	.	.
=177	=177	=177	=177	=177	=177	=177	=177	=177	=177	=177	=177
1C	.	1C	ha-	(>1G	or-	2f\	ha-	4cc\	.	2g/	or-
.	.	.	.	.	.	.	.	4dd\	.	.	.
!	!	!	!	!	!	!	!	!LO:TX:t=P:problem:przekreślona synkopowana wartość	!	!LO:SIC:v:s=[2g\	!
.	.	.	.	.	.	(4e\	-bi-	1ee	.	[y2a\	.
.	.	.	.	.	.	4d\)	.	.	.	.	.
=178	=178	=178	=178	=178	=178	=178	=178	=178-	=178	=178	=178
!LO:SIC:v:t=custos AA	!	!	!	!	!	!	!	!	!	!LO:N:vis=xstem:cue	!
1D	.	1D	-bi-	1F)	.	4f\	-ta-	.	.	4a\]	.
.	.	.	.	.	.	4e\	.	.	.	4g\	.
!	!	!	!	!	!	!	!	!LO:TX:t=P:problem:przekreślona synkopowana wartość	!	!	!
.	.	.	.	.	.	4f\	.	1dd	.	4a\	.
.	.	.	.	.	.	4g\	.	.	.	4b\	.
!LO:LB:g=original	!	!	!	!	!	!	!	!	!	!	!
=179	=179	=179	=179	=179	=179	=179	=179	=179-	=179	=179	=179
2AA/	.	2AA/	-ta-	(>1E	.	2a\	.	.	.	4cc\	.
.	.	.	.	.	.	.	.	.	.	4dd\	.
1C	.	1C	.	.	.	2e\	-tis	2cc\	.	4ee\	.
.	.	.	.	.	.	.	.	.	.	4cc\	.
=180-	=180	=180-	=180	=180	=180	=180	=180	=180	=180	=180	=180
.	.	.	.	1D)	.	2a\	ha-	2dd\	.	2ff\	.
2BB/	.	2BB/	.	.	.	(4g\	-bi-	2g/	-bem	4ee\	.
.	.	.	.	.	.	4f\)	.	.	.	4dd\	.
=181	=181	=181	=181	=181	=181	=181	=181	=181	=181	=181	=181
!	!	!	!	!LO:SIC:v:t=custos E	!	!	!	!	!	!	!
2AA/	.	2AA/	.	1E	.	2.e\	-ta-	2r	.	4cc\	.
.	.	.	.	.	.	.	.	.	.	4dd\	.
!	!	!	!	!	!	!	!	!	!	!LO:SIC:v:t=custos ee	!
2GG#X/	.	2GG#X/	-tis	.	.	.	.	2b\	qui	[2ee\	.
.	.	.	.	.	.	4d\	.	.	.	.	.
!	!	!	!	!LO:LB:g=original	!	!	!	!	!	!LO:LB:g=original	!
=182	=182	=182	=182	=182	=182	=182	=182	=182	=182	=182	=182
00AA	.	0AA	or-	[0E;l	-bem.	4c/	.	4cc\	ha-	4ee\]	.
.	.	.	.	.	.	4B/	.	4dd\	.	4dd\	.
.	.	.	.	.	.	4A/	.	4ee\	.	4cc\	.
.	.	.	.	.	.	4B/	.	4dd\	.	4b\	.
=183	=183	=183	=183	=183	=183	=183	=183	=183	=183	=183	=183
.	.	.	.	.	.	4c\	.	4cc\	.	4a\	.
.	.	.	.	.	.	4d\	.	4b\	.	4g\	.
.	.	.	.	.	.	4c\	.	4a\	.	4a\	.
!	!	!	!	!	!	!	!	!LO:SIC:v:t=custos a	!	!	!
.	.	.	.	.	.	4d\	.	4g\	.	4b\	.
!	!	!	!	!	!	!	!	!LO:LB:g=original	!	!	!
=184	=184	=184-	=184	=184	=184	=184	=184	=184	=184	=184	=184
.	.	[0E;l	-bem.	0E_	.	2e\	.	4a\	.	4cc\	.
.	.	.	.	.	.	.	.	4b\	.	4dd\	.
!	!	!	!	!	!	!LO:SIC:v:t=custos e	!	!	!	!	!
.	.	.	.	.	.	2e\	-tis	4cc\	.	4ee\	.
.	.	.	.	.	.	.	.	4g\	-bi-	4b\	.
!	!	!	!	!	!	!LO:LB:g=original	!	!	!	!	!
=185	=185	=185	=185	=185	=185	=185	=185	=185	=185	=185	=185
.	.	.	.	.	.	1e	or-	4a\	-ta-	4cc\	.
.	.	.	.	.	.	.	.	4e,</	-tis	4a\	.
!	!	!	!	!	!	!	!	!LO:TX:t=P:problem:przekreślona synkopowana wartość	!	!LO:TX:t=P:problem:przekreślona synkopowana wartość	!
.	.	.	.	.	.	.	.	1a	or-	1cc	.
=186	=186	=186	=186	=186	=186	=186	=186	=186-	=186	=186-	=186
0.E;l	.	0E_	.	0E_	.	[0e;l	-bem.	.	.	.	.
.	.	.	.	.	.	.	.	4g#X/	.	4b\	.
.	.	.	.	.	.	.	.	4f#X/	.	4a\	.
=187	=187	=187	=187	=187	=187	=187	=187	=187	=187	=187	=187
.	.	.	.	.	.	.	.	1g#X	.	1b	.
=188	=188	=188	=188	=188	=188	=188	=188	=188	=188	=188	=188
!	!	!	!	!	!	!	!	!LO:SIC:v:s=1g#;l	!	!	!
!	!	!	!	!	!	!	!	!LO:N:vis=0	!	!	!
.	.	1E]	.	1E]	.	1e]	.	1g;l	-bem.	1b;	-bem.
!	!	!LO:LB:g=original	!	!	!	!	!	!	!	!	!
=189||	=189||	=189||	=189||	=189||	=189||	=189||	=189||	=189||	=189||	=189||	=189||
*clefC4	*	*	*	*	*	*	*	*	*	*	*
!LO:TX:a:t=Intonatio.	!	!	!	!LO:TX:a:i:t=Intonatio.	!	!LO:TX:a:i:t=In hoc \nTacet.	!	!LO:TX:a:i:t=In hoc\nTacet.	!	!LO:TX:a:t=In hoc Cognos&colon; \nTacet&colon;	!
d	In	d	In	d	In	.	.	.	.	.	.
d	hoc	d	hoc	d	hoc	.	.	.	.	.	.
B	cog-	B	cog-	B	cog-	.	.	.	.	.	.
d	-nos-	d	-nos-	d	-nos-	.	.	.	.	.	.
e	-cent	e	-cent	e	-cent	.	.	.	.	.	.
*	*	*	*	*lig	*	*	*	*	*	*	*
d	om-	d	om-	d	om-	.	.	.	.	.	.
c	.	c	.	c	.	.	.	.	.	.	.
d	.	d	.	d	.	.	.	.	.	.	.
*	*	*	*	*Xlig	*	*	*	*	*	*	*
d	-nes.	d	-nes.	d;	-nes.	.	.	.	.	.	.
!LO:PB:g=original	!	!	!	!	!	!	!	!	!	!	!
=190||	=190||	=190||	=190||	=190||	=190||	=190||	=190||	=190||	=190||	=190||	=190||
*M2/2	*	*M2/2	*	*M2/2	*	*M2/2	*	*M2/2	*	*M2/2	*
*met(C|)	*	*met(C|)	*	*met(C|)	*	*met(C|)	*	*met(C|)	*	*met(C|)	*
*clefF4	*	*	*	*	*	*	*	*	*	*	*
!LO:TX:b:t=Quia&colon;	!	!	!	!	!	!	!	!	!	!	!
1D	.	1D	Qui-	1d	Q(ui)-	2d\	Qui-	1f#X	Qui-	2dd\	Qui-
!	!	!	!	!	!	!LO:TX:t=P:problem:przekreślona synkopowana wartość	!	!	!	!LO:TX:t=P:problem:przekreślona synkopowana wartość	!
.	.	.	.	.	.	1f#X	-a	.	.	1a	-a
=191	=191	=191	=191	=191	=191	=191-	=191	=191	=191	=191-	=191
1F#X	.	1F#X	-a	1d	-a	.	.	1a	-a	.	.
.	.	.	.	.	.	2a\	dis-	.	.	2a\	dis-
=192	=192	=192	=192	=192	=192	=192	=192	=192	=192	=192	=192
1G	.	1G	dis-	1B	dis-	[y1g	-ci-	1d	dis-	2.b\	-ci-
.	.	.	.	.	.	.	.	.	.	4b\	-pu-
=193	=193	=193	=193	=193	=193	=193	=193	=193	=193	=193	=193
!	!	!	!	!	!	!LO:N:vis=xstem:cue	!	!	!	!	!
1D	.	1D	-ci-	1d	-ci-	2g\]	.	2.d/	-ci-	1a	-li
.	.	.	.	.	.	2f#X\	-pu-	.	.	.	.
.	.	.	.	.	.	.	.	4d/	-pu-	.	.
=194	=194	=194	=194	=194	=194	=194	=194	=194	=194	=194	=194
!	!	!	!	!	!	!	!	!LO:SIC:v:t=custos a	!	!	!
2.E\	.	1E	-pu-	1c	-pu-	2e,<\	-li	1g	-li	2cc\	me-
!	!	!	!	!	!	!	!	!	!	!LO:TX:t=P:problem:przekreślona synkopowana wartość	!
.	.	.	.	.	.	2g\	me-	.	.	1a	-i
4E\	.	.	.	.	.	.	.	.	.	.	.
!	!	!	!	!	!	!	!	!LO:LB:g=original	!	!	!
=195	=195	=195	=195	=195	=195	=195	=195	=195	=195	=195-	=195
1F#X	.	1F#X	-li	1A	-li	4f#X\	.	2r	.	.	.
.	.	.	.	.	.	4e\	.	.	.	.	.
.	.	.	.	.	.	4d\	.	2b\	me-	[2dd\	es-
.	.	.	.	.	.	4c\	.	.	.	.	.
!	!	!	!	!	!	!	!	!	!	!LO:LB:g=original	!
=196	=196	=196	=196	=196	=196	=196	=196	=196	=196	=196	=196
!	!	!	!	!	!	!	!	!	!	!LO:TX:t=P:problem:brak zakończenia ligatury	!
1G	.	(1G	me-	(1B	me-	4B/	.	(4a\	-i	4dd\]	.
.	.	.	.	.	.	4G/	-i	4g\)	.	4cc\	.
!	!	!	!	!	!	!LO:TX:t=P:problem:przekreślona synkopowana wartość	!	!	!	!	!
.	.	.	.	.	.	1g	es-	2g\	es-	4b\	.
.	.	.	.	.	.	.	.	.	.	4cc\	.
=197	=197	=197-	=197	=197	=197	=197-	=197	=197	=197	=197	=197
1D	.	1D)	.	1A)	.	.	.	1a	-tis	4dd\	.
.	.	.	.	.	.	.	.	.	.	4cc\	.
.	.	.	.	.	.	2f#X\	.	.	.	4a\	.
.	.	.	.	.	.	.	.	.	.	4b\	.
=198	=198	=198	=198	=198	=198	=198	=198	=198	=198	=198	=198
!	!	!	!	!	!	!LO:SIC:v:t=custos a	!	!	!	!	!
1E	.	1E	-i	(>1G	-i	1g	-tis	2r	.	4cc\	.
.	.	.	.	.	.	.	.	.	.	4a\	.
.	.	.	.	.	.	.	.	2g/	Si	4b\	.
.	.	.	.	.	.	.	.	.	.	4cc\	.
!	!	!	!	!	!	!LO:LB:g=original	!	!	!	!	!
=199	=199	=199	=199	=199	=199	=199	=199	=199	=199	=199	=199
!	!	!LO:SIC:v:t=custos GG	!	!LO:SIC:v:t=custos G	!	!	!	!	!	!	!
1D	.	1D	es-	1F#X)	.	2r	.	2dd\	di-	2.dd\	.
!	!	!	!	!	!	!	!	!LO:TX:t=P:problem:przekreślona synkopowana wartość	!	!	!
.	.	.	.	.	.	2a\	Si	1dd	-lec-	.	.
.	.	.	.	.	.	.	.	.	.	4cc\	.
!	!	!LO:PB:g=original	!	!LO:LB:g=original	!	!	!	!	!	!	!
=200	=200	=200	=200	=200	=200	=200	=200	=200-	=200	=200	=200
1GG	.	1GG	-tis	1G	es-	2b\	di-	.	.	2.b\	.
!	!	!	!	!	!	!LO:TX:t=P:problem:przekreślona synkopowana wartość	!	!	!	!	!
.	.	.	.	.	.	1g	-lec-	2b\	-ti-	.	.
.	.	.	.	.	.	.	.	.	.	4a\	.
=201	=201	=201	=201	=201	=201	=201-	=201	=201	=201	=201	=201
2r	.	2r	.	1G	-tis	.	.	1dd	-o-	1g	.
2GG/	.	2G\	Si	.	.	2f\	-ti-	.	.	.	.
=202	=202	=202	=202	=202	=202	=202	=202	=202	=202	=202	=202
2C/	.	2C/	di-	1G	Si	2e\	-o-	1ee	-nem	1g	-tis,
1C	.	1C	-lec-	.	.	2c/	-nem	.	.	.	.
=203-	=203	=203-	=203	=203	=203	=203	=203	=203	=203	=203	=203
.	.	.	.	1F	di-	1d	ha-	[1dd	ha-	2r	.
2BB/	.	2BB/	-ti-	.	.	.	.	.	.	2g/	Si
=204	=204	=204	=204	=204	=204	=204	=204	=204	=204	=204	=204
!	!	!	!	!	!	!	!	!LO:N:vis=xstem:cue	!	!	!
1C	.	1C	-o-	1E	-lec-	1G	-bu-	2dd\]	.	2cc\	di-
!	!	!	!	!	!	!	!	!	!	!LO:TX:t=P:problem:przekreślona synkopowana wartość	!
.	.	.	.	.	.	.	.	2cc\	-bu-	1cc	-lec-
=205	=205	=205	=205	=205	=205	=205	=205	=205	=205	=205-	=205
1GG	.	1GG	-nem	1D	-ti-	2.g\	-e-	1dd	-e-	.	.
.	.	.	.	.	.	.	.	.	.	2b\	-ti-
.	.	.	.	.	.	4g\	-ri-	.	.	.	.
=206	=206	=206	=206	=206	=206	=206	=206	=206	=206	=206	=206
[y1C	.	[y1C	ha-	1E	-o-	1c	-tis	1cc	-ri-	2cc\	-o-
.	.	.	.	.	.	.	.	.	.	2g/	-nem
=207	=207	=207	=207	=207	=207	=207	=207	=207	=207	=207	=207
!LO:N:vis=xstem:cue	!	!LO:N:vis=xstem:cue	!	!	!	!	!	!	!	!	!
2C/]	.	2C/]	.	1C	-nem	2g\	Si	1cc	-tis	[y1cc	ha-
!LO:SIC:v:t=custos AA	!	!	!	!	!	!	!	!	!	!	!
2AA/	.	2AA/	-bu-	.	.	2a\	di-	.	.	.	.
!LO:LB:g=original	!	!	!	!	!	!	!	!	!	!	!
=208	=208	=208	=208	=208	=208	=208	=208	=208	=208	=208	=208
!	!	!	!	!	!	!	!	!	!	!LO:N:vis=xstem:cue	!
[y1AA	.	[y1AA	-e-	[y1E	ha-	2a\	-lec-	1a	ad	2cc\]	.
.	.	.	.	.	.	2e\	-ti-	.	.	2a\	-bu-
=209	=209	=209	=209	=209	=209	=209	=209	=209	=209	=209	=209
!LO:N:vis=xstem:cue	!	!LO:N:vis=xstem:cue	!	!LO:N:vis=xstem:cue	!	!	!	!	!	!	!
2AA/]	.	2AA/]	.	2E/]	.	2e\	-o-	4dd\	.	2.cc\	-e-
.	.	.	.	.	.	.	.	4cc\	.	.	.
2AA/	.	2AA/	-ri-	2F#X/	-bu-	2c/	-nem	4b\	.	.	.
!	!	!	!	!	!	!	!	!LO:SIC:v:t=custos g	!	!	!
.	.	.	.	.	.	.	.	4a\	.	4cc\	-ri-
!	!	!	!	!	!	!	!	!LO:PB:g=original	!	!	!
=210	=210	=210	=210	=210	=210	=210	=210	=210	=210	=210	=210
!	!	!	!	!	!	!	!	!	!	!LO:SIC:v:t=custos d	!
1GG	.	1GG	-tis	[y1G	-e-	2.g\	ha-	2.g/	.	2b\	-tis
!	!	!	!	!	!	!	!	!	!	!LO:PB:g=original	!
.	.	.	.	.	.	.	.	.	.	2d/	ad
.	.	.	.	.	.	4f\	.	4f/	.	.	.
=211	=211	=211	=211	=211	=211	=211	=211	=211	=211	=211	=211
!	!	!	!	!LO:N:vis=xstem:cue	!	!	!	!	!	!	!
2.C/	.	2.C/	ad	2G/]	.	4e\	.	1e	.	2.e/	.
.	.	.	.	.	.	4f\	.	.	.	.	.
.	.	.	.	2G/	-ri-	4e\	.	.	.	.	.
!	!	!	!	!	!	!LO:SIC:v:t=custos c	!	!	!	!	!
4D/	.	4D/	.	.	.	4d\	.	.	.	4f/	.
!	!	!	!	!	!	!LO:PB:g=original	!	!	!	!	!
=212	=212	=212	=212	=212	=212	=212	=212	=212	=212	=212	=212
4E\	.	4E\	.	1G	-tis	2c/	.	[1d	.	4g\	.
4F\	.	4F\	.	.	.	.	.	.	.	4a\	.
1G	.	1G	.	.	.	4B/	.	.	.	4b\	.
.	.	.	.	.	.	4A/	.	.	.	4cc\	.
=213-	=213	=213-	=213	=213	=213	=213	=213	=213	=213	=213	=213
.	.	.	.	(1A	ad	4B/	.	4d/]	.	4dd\	.
.	.	.	.	.	.	4c/	.	4e/	.	8cc\L	.
.	.	.	.	.	.	.	.	.	.	8b\J	.
2F\	.	2F\	.	.	.	2d\	-bu-	4f/	.	[y2a\	.
.	.	.	.	.	.	.	.	8e/L	.	.	.
.	.	.	.	.	.	.	.	8f/J	.	.	.
=214	=214	=214	=214	=214	=214	=214	=214	=214	=214	=214	=214
!	!	!	!	!	!	!	!	!	!	!LO:N:xstem:cue	!
2.E\	.	2.E\	.	1B)	.	2.e\	-e-	[y1g	in-	4a\]	.
.	.	.	.	.	.	.	.	.	.	8g/L	.
.	.	.	.	.	.	.	.	.	.	8f/J	.
.	.	.	.	.	.	.	.	.	.	2g/	.
4D/	.	4D/	.	.	.	4e\	-ri-	.	.	.	.
=215	=215	=215	=215	=215	=215	=215	=215	=215	=215	=215	=215
!	!	!	!	!	!	!	!	!LO:N:vis=xstem:cue	!	!	!
2C/	.	2C/	in-	1A	in-	2e\	-tis	2g\]	.	1a	in-
!	!	!LO:SIC:v:t=custos GG	!	!	!	!	!	!	!	!	!
2D/	.	2D/	-vi-	.	.	2d\	ad	2f/	-vi-	.	.
!	!	!LO:LB:g=original	!	!	!	!	!	!	!	!	!
=216	=216	=216	=216	=216	=216	=216	=216	=216	=216	=216	=216
1GG	.	1GG	-cem	(>1G	.	2.d\	in-	(1g	-cem	1b	.
.	.	.	.	.	.	4d\	-vi-	.	.	.	.
=217	=217	=217	=217	=217	=217	=217	=217	=217	=217	=217	=217
!	!	!	!	!LO:SIC:v:t=custos G	!	!	!	!	!	!	!
2r	.	2r	.	1F#X)	.	1d	-cem	1a)	.	2.a\	.
!LO:TX:a:t=d	!	!	!	!	!	!	!	!	!	!	!
2D/	.	2D\	di-	.	.	.	.	.	.	.	.
.	.	.	.	.	.	.	.	.	.	4a\	-vi-
!	!	!	!	!LO:LB:g=original	!	!	!	!	!	!	!
=218	=218	=218	=218	=218	=218	=218	=218	=218	=218	=218	=218
!	!	!	!	!	!	!	!	!LO:TX:a:t=1.	!	!	!
2E\	.	2E\	-xit	1G	-vi-	2r	.	1r	.	1g	-cem ,
2C/	.	2C/	Je-	.	.	2c/	di-	.	.	.	.
=219	=219	=219	=219	=219	=219	=219	=219	=219-	=219	=219	=219
!	!	!	!	!	!	!	!	!	!	!LO:TX:a:t=1.	!
2C/	.	2C/	-sus	1G	-cem	2e\	-xit	2r	.	1r	.
2BB/	.	2BB/	dis-	.	.	2g\	Je-	2dd\	di-	.	.
=220	=220	=220	=220	=220	=220	=220	=220	=220	=220	=220-	=220
2.C/	.	2.C/	-ci-	1G	di-	2g\	-sus	2ee\	-xit	2r	.
.	.	.	.	.	.	2e\	dis-	2cc\	Je-	2cc\	di-
4C/	.	4C/	-pu-	.	.	.	.	.	.	.	.
=221	=221	=221	=221	=221	=221	=221	=221	=221	=221	=221	=221
1GG	.	1GG	-lis,	1G	-xit	2.g\	-ci-	2cc\	-sus	1dd	-xit
.	.	.	.	.	.	.	.	2b\	dis-	.	.
.	.	.	.	.	.	4f\	-pu-	.	.	.	.
=222	=222	=222	=222	=222	=222	=222	=222	=222	=222	=222	=222
2r	.	2r	.	(2c\	Je-	2e\	-lis	2.cc\	-ci-	2ee\	Je-
!LO:SIC:v:t=custos A	!	!	!	!	!	!	!	!	!	!	!
2G\	.	2G\	di-	2G/	.	2g\	dis-	.	.	2dd\	-sus
.	.	.	.	.	.	.	.	4b\	-pu-	.	.
!LO:LB:g=original	!	!	!	!	!	!	!	!	!	!	!
=223	=223	=223	=223	=223	=223	=223	=223	=223	=223	=223	=223
2A\	.	2A\	-xit	1c)	.	2e\	-ci-	(2.a\	-lis	2.cc\	dis-
!	!	!	!	!	!	!LO:SIC:v:t=custos c	!	!	!	!	!
2F\	.	2F\	Je-	.	.	2f\	-pu-	.	.	.	.
.	.	.	.	.	.	.	.	4g/)	.	4b\	.
!	!	!	!	!	!	!LO:LB:g=original	!	!	!	!	!
=224	=224	=224	=224	=224	=224	=224	=224	=224	=224	=224	=224
2F\	.	2F\	-sus	1c	-sus	(4c\	-lis	2f/	Su-	4a\	-ci-
.	.	.	.	.	.	4d,<\)	.	.	.	8g/L	.
.	.	.	.	.	.	.	.	.	.	8f/J	.
!	!	!	!	!	!	!	!	!	!	!LO:LB:g=original	!
2E\	.	2E\	dis-	.	.	2e\	Su-	2g/	.	[y2g/	.
=225	=225	=225	=225	=225	=225	=225	=225	=225	=225	=225	=225
!	!	!	!	!	!	!	!	!LO:SIC:v:t=custos b	!	!LO:N:xstem:cue	!
2.F\	.	2.F\	-ci-	1A	dis-	2.c\	.	2.a\	.	4g/]	.
.	.	.	.	.	.	.	.	.	.	4f/	-pu-
.	.	.	.	.	.	.	.	.	.	[2f/	-lis
!	!	!	!	!	!	!	!	!LO:LB:g=original	!	!	!
4F\	.	4F\	-pu-	.	.	4d\	.	4b\	.	.	.
=226	=226	=226	=226	=226	=226	=226	=226	=226	=226	=226	=226
2C/	.	2C/	-lis	1G	-ci-	4e\	.	1cc	.	2f,</]	.
.	.	.	.	.	.	4f\	.	.	.	.	.
2C/	.	2C/	dis-	.	.	[y2g\	.	.	.	4e/	Su-
.	.	.	.	.	.	.	.	.	.	4d/	.
=227	=227	=227	=227	=227	=227	=227	=227	=227	=227	=227	=227
!	!	!	!	!	!	!LO:N:vis=xstem:cue	!	!	!	!	!
2.C/	.	2.C/	-ci-	1G	-pu-	4g\]	.	2cc,<\	-is	4e/	.
.	.	.	.	.	.	4f\	.	.	.	4f/	.
.	.	.	.	.	.	4e\	.	2cc\	dis-	4g/	.
4C/	.	4C/	-pu-	.	.	4f\	.	.	.	4a/	.
=228	=228	=228	=228	=228	=228	=228	=228	=228	=228	=228	=228
!	!	!LO:SIC:v:t=custos C	!	!	!	!	!	!	!	!	!
1BB	.	1BB	-lis	1G	-lis	2d\	-is	(4dd\	-ci-	4b\	.
.	.	.	.	.	.	.	.	4cc\)	.	4cc\	.
.	.	.	.	.	.	4g\	Su-	(4b\	-pu-	4dd\	.
.	.	.	.	.	.	4f\	.	4a\)	.	8cc\L	.
.	.	.	.	.	.	.	.	.	.	8dd\J	.
!	!	!LO:LB:g=original	!	!	!	!	!	!	!	!	!
=229	=229	=229	=229	=229	=229	=229	=229	=229	=229	=229	=229
0C	.	0C	Su-	1G	Su-	2.e\	.	2g,</	-lis	4ee\	.
.	.	.	.	.	.	.	.	.	.	4dd\	.
.	.	.	.	.	.	.	.	4a\	Su-	4cc\	.
.	.	.	.	.	.	4d\	.	4b\	.	4dd\	.
=230	=230	=230	=230	=230	=230	=230	=230	=230	=230	=230	=230
!	!	!	!	!LO:SIC:v:s=[1G;l	!	!	!	!	!	!	!
.	.	.	.	[1F;l	-is.	4c\	.	4cc\	.	4ee\	.
.	.	.	.	.	.	4B\	.	4dd\	.	4ff\	.
!	!	!	!	!	!	!	!	!LO:TX:t=P:problem:przekreślona synkopowana wartość	!	!LO:TX:t=P:problem:przekreślona synkopowana wartość	!
.	.	.	.	.	.	4c\	.	1cc	.	1ee	.
.	.	.	.	.	.	4d\	.	.	.	.	.
=231	=231	=231	=231	=231	=231	=231	=231	=231-	=231	=231-	=231
[0GG;l	.	[0G;l	-is.	1F_	.	4e\	.	.	.	.	.
.	.	.	.	.	.	4f\	.	.	.	.	.
.	.	.	.	.	.	4g\	.	4b\	.	4dd\	.
.	.	.	.	.	.	4a\	.	4a\	.	4cc\	.
=232	=232	=232	=232	=232	=232	=232	=232	=232	=232	=232	=232
!	!	!	!	!	!	!	!	!	!	!LO:N:vis=1	!
.	.	.	.	1F_	.	1g	.	0b;l	-is.	0dd;	-is.
=233	=233	=233	=233	=233	=233	=233	=233	=233	=233	=233-	=233
!	!	!	!	!	!	!LO:N:vis=0	!	!	!	!	!
1GG]	.	1G]	.	1F]	.	1g;l	-is.	.	.	.	.
=234||	=234||	=234||	=234||	=234||	=234||	=234||	=234||	=234||	=234||	=234||	=234||
*M2/2	*	*M2/2	*	*M2/2	*	*M2/2	*	*M2/2	*	*M2/2	*
*met(C|)	*	*met(C|)	*	*met(C|)	*	*met(C|)	*	*met(C|)	*	*met(C|)	*
*clefC4	*	*	*	*	*	*	*	*	*	*	*
!LO:TX:b:t=Timeamus.	!	!	!	!	!	!	!	!	!	!LO:TX:a:t=8.	!
2.G/	.	00r	.	2.G/	Ti-	2.B/	Ti-	[y1g	Ti-	00r	.
4A/	.	.	.	4A/	-me-	4c/	-me-	.	.	.	.
=235	=235	=235	=235	=235	=235	=235	=235	=235	=235	=235	=235
!	!	!	!	!	!	!	!	!LO:N:vis=xstem:cue	!	!	!
2B\	.	.	.	2B\	-a-	2d\	-a-	2g\]	.	.	.
!	!	!	!	!LO:SIC:v:t=custos A	!	!LO:SIC:v:t=custos c	!	!	!	!	!
2c\	.	.	.	2c\	-mus	2e\	-mus	2g/	-me-	.	.
!	!	!	!	!LO:PB:g=original	!	!LO:LB:g=original	!	!	!	!	!
=236	=236	=236	=236	=236	=236	=236	=236	=236	=236	=236	=236
2.A/	.	.	.	2.A/	et	2.c\	et	[1cc	-a-	.	.
4G/	.	.	.	4G/	a-	4d\	a-	.	.	.	.
=237	=237	=237	=237	=237	=237	=237	=237	=237	=237	=237	=237
!	!	!	!	!	!	!	!	!LO:N:vis=xstem:cue	!	!	!
2F/	.	.	.	2F/	-me-	(4e\	-me-	2cc\]	.	.	.
.	.	.	.	.	.	4f\)	.	.	.	.	.
!LO:SIC:v:t=custos F	!	!	!	!	!	!	!	!	!	!	!
2E/	.	.	.	2E/	-m(us)	2g\	-m(us)	2b\	-mus	.	.
!LO:LB:g=original	!	!	!	!	!	!	!	!	!	!	!
=238	=238	=238	=238	=238	=238	=238	=238	=238	=238	=238	=238
!LO:TX:a:t=Tenor&colon;	!	!	!	!	!	!	!	!	!	!	!
[y1F	.	00r	.	(>[y1F	De-	2f\	De-	2a\	et	00r	.
!	!	!	!	!	!	!	!	!LO:SIC:v:t=custos a	!	!	!
.	.	.	.	.	.	4e\	.	2f/	a-	.	.
.	.	.	.	.	.	4d\	.	.	.	.	.
!	!	!	!	!	!	!	!	!LO:LB:g=original	!	!	!
=239	=239	=239	=239	=239	=239	=239	=239	=239	=239	=239	=239
!LO:N:vis=xstem:cue	!	!	!	!LO:N:vis=xstem:cue	!	!	!	!	!	!	!
2F/]	.	.	.	2F/]	.	2c\	.	(4a\	-me-	.	.
.	.	.	.	.	.	.	.	4b\)	.	.	.
2A/	.	.	.	2A/	.	2f\	-um	(4cc\	-mus	.	.
.	.	.	.	.	.	.	.	4a\)	.	.	.
=240	=240	=240	=240	=240	=240	=240	=240	=240	=240	=240	=240
2G/	.	.	.	2G/)	.	4d\	Vi-	2b\	De-	.	.
.	.	.	.	.	.	4e\	.	.	.	.	.
!	!	!	!	!	!	!	!	!LO:TX:t=P:problem:przekreślona synkopowana wartość	!	!	!
2F/	.	.	.	2F/	-um	4f\	.	1cc	-um	.	.
.	.	.	.	.	.	4e\	.	.	.	.	.
=241	=241	=241	=241	=241	=241	=241	=241	=241-	=241	=241	=241
1G	.	.	.	1G	Vi-	1d	.	.	.	.	.
.	.	.	.	.	.	.	.	2b\	Vi-	.	.
=242	=242	=242	=242	=242	=242	=242	=242	=242	=242	=242	=242
1C	.	1r	.	1C	-vum	1e	-vum	1cc	-vum	2r	.
.	.	.	.	.	.	.	.	.	.	[2g/	Et
=243	=243	=243	=243	=243	=243	=243	=243	=243	=243	=243	=243
*clefF4	*	*	*	*	*	*	*	*	*	*	*
[y1C	.	[y1C	Et	1c	et	2r	.	[1g	et	2g,</]	.
!	!	!	!	!	!	!LO:TX:t=P:problem:przekreślona synkopowana wartość	!	!	!	!	!
.	.	.	.	.	.	1e	et	.	.	2cc\	ex
=244	=244	=244	=244	=244	=244	=244-	=244	=244	=244	=244	=244
!LO:N:vis=xstem:cue	!	!LO:N:vis=xstem:cue	!	!	!	!	!	!LO:N:vis=xstem:cue	!	!LO:SIC:v:t=custos a	!
2C/]	.	2C/]	.	1c	ex	.	.	2g\]	.	2cc\	Cor-
!	!	!	!	!	!	!	!	!	!	!LO:LB:g=original	!
2F\	.	2F\	ex	.	.	2a\	ex	2a\	ex	[2a\	-de
=245	=245	=245	=245	=245	=245	=245	=245	=245	=245	=245	=245
1D	.	1D	Cor-	1A	Cor-	1f	Cor-	1a	Cor-	2a,<\]	.
.	.	.	.	.	.	.	.	.	.	[2dd\	di-
=246	=246	=246	=246	=246	=246	=246	=246	=246	=246	=246	=246
1G	.	1G	-de	1G	-de	1g	-de	1b	-de	2dd\]	.
.	.	.	.	.	.	.	.	.	.	2b\	-li-
=247	=247	=247	=247	=247	=247	=247	=247	=247	=247	=247	=247
2G\	.	2G\	di-	1G	di-	1g	di-	2b\	di-	2dd\	-ga-
2E\	.	2E\	-li-	.	.	.	.	2cc\	-li-	2ee\	-mus
=248	=248	=248	=248	=248	=248	=248	=248	=248	=248	=248	=248
1F	.	1F	-ga-	1F	-li-	2a\	-li-	4a\	-ga-	[y1cc	nos
.	.	.	.	.	.	.	.	4g\	.	.	.
!	!	!	!	!	!	!LO:TX:t=P:problem:przekreślona synkopowana wartość	!	!	!	!	!
.	.	.	.	.	.	1f	-ga-	4a\	.	.	.
.	.	.	.	.	.	.	.	4b\	.	.	.
=249	=249	=249	=249	=249	=249	=249-	=249	=249	=249	=249	=249
!	!	!	!	!	!	!	!	!	!	!LO:N:vis=xstem:cue	!
1C	.	1C	-m(us)	1G	-ga-	.	.	4cc\	.	2cc\]	.
.	.	.	.	.	.	.	.	4dd\	.	.	.
.	.	.	.	.	.	2e\	-m(us)	2ee\	.	2cc\	Sin-
=250	=250	=250	=250	=250	=250	=250	=250	=250	=250	=250	=250
!	!	!	!	!	!	!LO:SIC:v:t=custos g	!	!	!	!	!
1D	.	(1D	nos	1F	-m(us)	1f	nos	2.dd\	-m(us)	2a\	-ce-
!	!	!	!	!	!	!	!	!	!	!LO:TX:t=P:problem:przekreślona synkopowana wartość	!
.	.	.	.	.	.	.	.	.	.	1b	.
.	.	.	.	.	.	.	.	4cc\	.	.	.
!	!	!	!	!	!	!LO:LB:g=original	!	!	!	!	!
=251	=251	=251	=251	=251	=251	=251	=251	=251	=251	=251-	=251
1E	.	1E)	.	(1E	nos	2g\	Sin-	4b\	nos	.	.
.	.	.	.	.	.	.	.	4a\	.	.	.
!	!	!	!	!	!	!	!	!LO:SIC:v:t=custos a	!	!	!
.	.	.	.	.	.	(4f\	-ce-	2g/	.	2cc\	.
.	.	.	.	.	.	4e\)	.	.	.	.	.
!	!	!	!	!	!	!	!	!LO:LB:g=original	!	!	!
=252	=252	=252	=252	=252	=252	=252	=252	=252	=252	=252	=252
!	!	!	!	!LO:SIC:v:t=custos A	!	!	!	!	!	!	!
2D/	.	(2D/	Sin-	1A)	.	2f,<\	-ro	4a\	Sin-	2dd\	.
.	.	.	.	.	.	.	.	4b\	.	.	.
2C/	.	2C/)	.	.	.	2e\	Sin-	4cc\	.	2ee\	.
.	.	.	.	.	.	.	.	4b\	.	.	.
!	!	!	!	!LO:LB:g=original	!	!	!	!	!	!	!
=253	=253	=253	=253	=253	=253	=253	=253	=253	=253	=253	=253
[y1D	.	0D	-ce-	1A	Sin-	2f#X\	-ce-	2a\	-ce-	2dd\	.
!	!	!	!	!	!	!LO:TX:t=P:problem:przekreślona synkopowana wartość	!	!	!	!	!
.	.	.	.	.	.	1g	.	4b\	.	4cc\	.
.	.	.	.	.	.	.	.	4cc\	.	4b\	.
=254	=254	=254	=254	=254	=254	=254-	=254	=254	=254	=254	=254
!LO:N:vis=xstem:cue	!	!	!	!	!	!	!	!	!	!	!
2D\]	.	.	.	(<1A	-ce-	.	.	(2.dd\	.	1a	.
2D/	.	.	.	.	.	2f#X\	.	.	.	.	.
.	.	.	.	.	.	.	.	4cc#X\)	.	.	.
=255	=255	=255	=255	=255	=255	=255	=255	=255	=255	=255	=255
!	!	!LO:TX:t=P:problem:fermata na kresce	!	!	!	!	!	!	!	!LO:N:vis=1	!
0GG;l	.	0GG;l	-ro.	1G)	.	0g;l	-ro.	0dd;l	-ro.	0b;	-ro.
=256	=256	=256	=256	=256	=256	=256	=256	=256	=256	=256-	=256
!	!	!	!	!LO:N:vis=0	!	!	!	!	!	!	!
.	.	.	.	1G;l	-ro.	.	.	.	.	.	.
!LO:LB:g=original	!	!LO:LB:g=original	!	!	!	!	!	!	!	!	!
=257||	=257||	=257||;	=257||	=257||	=257||	=257||	=257||	=257||	=257||	=257||	=257||
*M2/2	*	*M2/2	*	*M2/2	*	*M2/2	*	*M2/2	*	*M2/2	*
*met(C|)	*	*met(C|)	*	*met(C|)	*	*met(C|)	*	*met(C|)	*	*met(C|)	*
!LO:TX:b:t=Ne nos &colon;	!	!	!	!	!	!	!	!	!	!	!
[y1G	.	[y1G	Ne	0G	Ne	2r	.	2dd\	Ne	1b	Ne
!	!	!	!	!	!	!LO:TX:t=P:problem:przekreślona synkopowana wartość	!	!	!	!	!
.	.	.	.	.	.	1g	Ne	2b\	nos	.	.
=258	=258	=258	=258	=258	=258	=258-	=258	=258	=258	=258	=258
!LO:N:vis=xstem:cue	!	!LO:N:vis=xstem:cue	!	!	!	!	!	!	!	!LO:SIC:v:t=custos cc	!
2G\]	.	2G\]	.	.	.	.	.	2.ee\	men-	2g\	nos
!	!	!	!	!	!	!	!	!	!	!LO:LB:g=original	!
2C/	.	2C/	nos	.	.	2e\	nos	.	.	[y2cc\	men-
.	.	.	.	.	.	.	.	4dd\	.	.	.
=259	=259	=259	=259	=259	=259	=259	=259	=259	=259	=259	=259
!	!	!	!	!	!	!	!	!	!	!LO:N:vis=xstem:cue	!
2.F\	.	(2.F\	men-	1A	nos	2.c/	men-	1cc	.	4cc\]	.
.	.	.	.	.	.	.	.	.	.	4b\	.
.	.	.	.	.	.	.	.	.	.	4a\	.
4E\	.	4E\	.	.	.	8d\L	.	.	.	4g\	.
.	.	.	.	.	.	8e\J	.	.	.	.	.
=260	=260	=260	=260	=260	=260	=260	=260	=260	=260	=260	=260
1D	.	1D)	.	1B	men-	2f\	.	1dd	-te	[y1f	.
.	.	.	.	.	.	2d\	-te	.	.	.	.
=261	=261	=261	=261	=261	=261	=261	=261	=261	=261	=261	=261
!	!	!	!	!	!	!	!	!	!	!LO:N:vis=xstem:cue	!
1C	.	1C	-te	1c	-te	2r	.	2r	.	2f/]	.
.	.	.	.	.	.	2g\	di-	2cc\	di-	2e/	-te
=262	=262	=262	=262	=262	=262	=262	=262	=262	=262	=262	=262
2r	.	2r	.	1G	di-	2e\	-vi-	2cc\	-vi-	2g/	di-
!	!	!	!	!	!	!LO:TX:t=P:problem:przekreślona synkopowana wartość	!	!	!	!	!
1C	.	1C	di-	.	.	1g	-da-	[y2ee\	-da-	2e/	-vi-
=263-	=263	=263-	=263	=263	=263	=263-	=263	=263	=263	=263	=263
!	!	!	!	!	!	!	!	!LO:N:vis=xstem:cue	!	!	!
.	.	.	.	1c	-vi-	.	.	4ee\]	.	2g/	-da-
.	.	.	.	.	.	.	.	4dd\	.	.	.
!	!	!LO:TX:a:t=a	!	!	!	!LO:SIC:v:t=custos d	!	!	!	!	!
2AA/	.	2AA/	-vi-	.	.	2e\	.	4cc\	.	[y2a\	.
.	.	.	.	.	.	.	.	8b\L	.	.	.
!	!	!	!	!	!	!	!	!LO:SIC:v:t=custos dd	!	!	!
.	.	.	.	.	.	.	.	8cc\J	.	.	.
!	!	!	!	!	!	!LO:LB:g=original	!	!LO:LB:g=original	!	!	!
=264	=264	=264	=264	=264	=264	=264	=264	=264	=264	=264	=264
!	!	!	!	!	!	!	!	!	!	!LO:N:vis=xstem:cue	!
2.BB/	.	2.BB/	-da-	(1B	-da-	1d	.	2dd\	.	4a\]	.
.	.	.	.	.	.	.	.	.	.	4g/	.
!	!	!	!	!	!	!	!	!LO:TX:t=P:problem:przekreślona synkopowana wartość	!	!LO:TX:t=P:problem:przekreślona synkopowana wartość	!
.	.	.	.	.	.	.	.	1dd	.	1g	.
4C/	.	4C/	.	.	.	.	.	.	.	.	.
=265	=265	=265	=265	=265	=265	=265	=265	=265-	=265	=265-	=265
!	!	!	!	!	!	!LO:SIC:v:l:s=-mur	!	!	!	!	!
1D	.	1D	.	1A)	.	1d	-mus	.	.	.	.
.	.	.	.	.	.	.	.	2a\	.	2f#X/	.
=266	=266	=266	=266	=266	=266	=266	=266	=266	=266	=266	=266
!	!	!	!	!	!	!	!	!LO:SIC:v:l:s=-mur	!	!	!
1GG	.	1GG	-mur	1G	-mur	2.d\	di-	1b	-mus	2g/	-m(us),
!	!	!	!	!	!	!	!	!	!	!LO:TX:t=P:problem:przekreślona synkopowana wartość	!
.	.	.	.	.	.	.	.	.	.	1dd	Ca-
.	.	.	.	.	.	4c/	-vi-	.	.	.	.
=267	=267	=267	=267	=267	=267	=267	=267	=267	=267	=267-	=267
!	!	!	!	!	!	!	!	!LO:TX:a:t=1.	!	!	!
2r	.	2r	.	[y1B	Ca-	(4B/	-da-	1r	.	.	.
.	.	.	.	.	.	4A/)	.	.	.	.	.
!	!	!	!	!	!	!LO:SIC:v:l:s=-mur	!	!	!	!	!
1G	.	1G	Ca-	.	.	2G/	-mus	.	.	2ee\	-ve-
=268-	=268	=268-	=268	=268	=268	=268	=268	=268-	=268	=268	=268
!	!	!	!	!LO:N:vis=xstem:cue	!	!	!	!	!	!	!
.	.	.	.	2B\]	.	2r	.	2r	.	2dd\	-a-
!	!	!	!	!	!	!LO:TX:t=P:problem:przekreślona synkopowana wartość	!	!	!	!	!
2A\	.	2A\	-ve-	2c\	-ve-	1e	Ca-	2ee\	Ca-	2cc\	-mus
=269	=269	=269	=269	=269	=269	=269-	=269	=269	=269	=269	=269
!	!	!	!	!	!	!	!	!	!	!LO:TX:a:t=1.	!
1F	.	1F	-a-	(1A	-a-	.	.	2ff\	-ve-	1r	.
!	!	!	!	!	!	!	!	!LO:TX:t=P:problem:przekreślona synkopowana wartość	!	!	!
.	.	.	.	.	.	2d\	-ve-	(1a	-a-	.	.
=270	=270	=270	=270	=270	=270	=270	=270	=270-	=270	=270-	=270
!	!	!LO:SIC:v:t=custos A	!	!LO:SIC:v:t=custos A	!	!	!	!	!	!	!
1E	.	1E	-mus	1B)	.	1e	-a-	.	.	2r	.
.	.	.	.	.	.	.	.	2g#X/)	.	[y2ee\	Ca-
!	!	!LO:LB:g=original	!	!LO:LB:g=original	!	!	!	!	!	!	!
=271	=271	=271	=271	=271	=271	=271	=271	=271	=271	=271	=271
!	!	!	!	!	!	!	!	!	!	!LO:N:vis=xstem:cue	!
2r	.	2r	.	1A	-mus	1e	-mus	2a,<\	-mus	4ee\]	.
.	.	.	.	.	.	.	.	.	.	4dd\	.
1A	.	1A	Ca-	.	.	.	.	4ee\	Ca-	4cc\	.
.	.	.	.	.	.	.	.	4dd\	.	4b\	.
=272-	=272	=272-	=272	=272	=272	=272	=272	=272	=272	=272	=272
.	.	.	.	1c	Ca-	2r	.	4cc\	.	4a\	.
.	.	.	.	.	.	.	.	4b\	.	4b\	.
2F\	.	2F\	-ve-	.	.	1a	Ca-	4a\	.	4cc\	.
!	!	!	!	!	!	!	!	!	!	!LO:SIC:v:t=custos a	!
.	.	.	.	.	.	.	.	4b\	.	4b\	.
!	!	!	!	!	!	!	!	!	!	!LO:LB:g=original	!
=273	=273	=273	=273	=273	=273	=273-	=273	=273	=273	=273	=273
1A	.	(1A	-a-	1c	-ve-	.	.	2cc\	.	4a\	-ve-
.	.	.	.	.	.	.	.	.	.	4b\	.
!	!	!	!	!	!	!	!	!	!	!LO:TX:t=P:problem:przekreślona synkopowana wartość	!
.	.	.	.	.	.	2f#X\	-ve-	2a\	-ve-	(1cc	-a-
=274	=274	=274	=274	=274	=274	=274	=274	=274	=274	=274-	=274
1G	.	1G)	.	1d	-a-	(2.g\	-a-	(2dd\	-a-	.	.
.	.	.	.	.	.	.	.	2g/)	.	2b\)	.
.	.	.	.	.	.	4f\)	.	.	.	.	.
=275	=275	=275	=275	=275	=275	=275	=275	=275	=275	=275	=275
!LO:SIC:v:t=custos F	!	!	!	!	!	!	!	!	!	!	!
1C	.	1C	-mus	1c	-mus	1e	-m(us)	1g	-m(us)	2cc\	-m(us),
.	.	.	.	.	.	.	.	.	.	2ee\	Ceſ-
!LO:LB:g=original	!	!	!	!	!	!	!	!	!	!	!
=276	=276	=276	=276	=276	=276	=276	=276	=276	=276	=276	=276
2r	.	2r	.	1c	Ceſ-	2r	.	2r	.	1cc	-sent
2F\	.	2F\	Ceſ-	.	.	2a\	Ceſ-	2ee\	Ceſ-	.	.
=277	=277	=277	=277	=277	=277	=277	=277	=277	=277	=277	=277
!	!	!LO:SIC:v:l:s=-sent	!	!	!	!	!	!	!	!	!
1D	.	1D	-sen	1A	-sent	1f	-sent	1ff	-sent	2.dd\	Jur-
.	.	.	.	.	.	.	.	.	.	4cc\	-gi-
=278	=278	=278	=278	=278	=278	=278	=278	=278	=278	=278	=278
2.E\	.	2.E\	Jur-	[y1G	Jur-	2.g\	Jur-	2r	.	2b\	-a
.	.	.	.	.	.	.	.	[y2ee\	Jur-	2g/	ma-
!	!	!	!	!	!	!LO:SIC:v:t=custos e	!	!	!	!	!
4D\	.	4D/	-gi-	.	.	4f\	-gi-	.	.	.	.
!	!	!	!	!	!	!LO:LB:g=original	!	!	!	!	!
=279	=279	=279	=279	=279	=279	=279	=279	=279	=279	=279	=279
!	!	!	!	!LO:N:vis=xstem:cue	!	!	!	!LO:N:vis=xstem:cue	!	!	!
2C/	.	2C/	-a	2G/]	.	[y1e	-a,	4ee\]	.	2cc\	-lig-
!	!	!	!	!	!	!	!	!LO:SIC:v:t=custos d	!	!	!
.	.	.	.	.	.	.	.	4ee\	-gi-	.	.
!	!	!	!	!	!	!	!	!LO:LB:g=original	!	!	!
!	!	!	!	!	!	!	!	!LO:TX:t=P:problem:przekreślona synkopowana wartość	!	!LO:TX:t=P:problem:przekreślona synkopowana wartość	!
2GG/	.	2G\	ma-	2G/	-gi-	.	.	1dd,<	-a	1b	.
=280	=280	=280	=280	=280	=280	=280	=280	=280-	=280	=280-	=280
!	!	!	!	!	!	!LO:N:vis=xstem:cue	!	!	!	!	!
0AA	.	0A	-lig-	2E/	-a	2e\]	.	.	.	.	.
.	.	.	.	2E/	ma-	2e\	ma-	2cc\	ma-	2a\	-na
!	!	!	!	!	!	!	!	!	!	!LO:LB:g=original	!
=281	=281	=281	=281	=281	=281	=281	=281	=281	=281	=281	=281
!	!	!	!	!	!	!LO:TX:a:t=2.	!	!	!	!	!
.	.	.	.	1A	-lig-	0e	-lig-	1cc	-lig-	2a\	ma-
!	!	!	!	!	!	!	!	!	!	!LO:TX:t=P:problem:przekreślona synkopowana wartość	!
.	.	.	.	.	.	.	.	.	.	1a	-lig-
=282	=282	=282	=282	=282	=282	=282	=282	=282	=282	=282-	=282
1E	.	1E	-na	1B	-na	.	.	2b,<\	-na	.	.
!	!	!	!	!	!	!	!	!LO:TX:t=P:problem:przekreślona synkopowana wartość	!	!	!
.	.	.	.	.	.	.	.	1ee	Ceſ-	2g#X/	-na,
=283	=283	=283	=283	=283	=283	=283	=283	=283-	=283	=283	=283
1A	.	1A	Ceſ-	1A	Ceſ-	1e	-na	.	.	2r	.
!	!	!	!	!	!	!	!	!	!	!LO:TX:t=P:problem:przekreślona synkopowana wartość	!
.	.	.	.	.	.	.	.	2cc\	-sent	1cc	Ceſ-
=284	=284	=284	=284	=284	=284	=284	=284	=284	=284	=284-	=284
1G	.	1G	-sent	1d	-sent	2g\	Ceſ-	(4dd\	li-	.	.
.	.	.	.	.	.	.	.	4ee\)	.	.	.
!	!	!	!	!	!	!	!	!LO:TX:t=P:problem:przekreślona synkopowana wartość	!	!	!
.	.	.	.	.	.	2f\	-sent	1dd	.	2b\	-sent
=285	=285	=285	=285	=285	=285	=285	=285	=285-	=285	=285	=285
1A	.	1A	li-	1A	li-	1e	li-	.	.	1a	li-
.	.	.	.	.	.	.	.	2cc#X\	.	.	.
=286	=286	=286	=286	=286	=286	=286	=286	=286	=286	=286	=286
!	!	!	!	!LO:SIC:v:t=custos d	!	!	!	!	!	!	!
1D	.	1D	-tes	1A	-tes	1f#X	-tes	1dd	-tes,	1a	-tes,
!	!	!	!	!LO:LB:g=original	!	!	!	!	!	!	!
=287	=287	=287	=287	=287	=287	=287	=287	=287	=287	=287	=287
2r	.	2r	.	2r	.	2r	.	2r	.	2r	.
!	!	!LO:SIC:v:t=custos C	!	!	!	!LO:TX:t=P:problem:przekreślona synkopowana wartość	!	!	!	!LO:TX:t=P:problem:przekreślona synkopowana wartość	!
1G	.	1G	et	1d	et	1g	et	1b	et	1dd	et
=288-	=288	=288-	=288	=288-	=288	=288-	=288	=288	=288	=288-	=288
.	.	.	.	.	.	.	.	.	.	.	.
!	!	!LO:LB:g=original	!	!	!	!	!	!	!	!	!
2C/	.	2C/	in	2c\	in	2e\	in	2cc\	in	2ee\	in
=289	=289	=289	=289	=289	=289	=289	=289	=289	=289	=289	=289
2.F\	.	2.F\	me-	2.c\	me-	4c/	me-	4a\	me-	2.ff\	me-
.	.	.	.	.	.	4B/	.	4g\	.	.	.
.	.	.	.	.	.	4c/	.	4a\	.	.	.
4F\	.	4F\	-di-	4c\	-di-	4d/	.	4b\	.	4ff\	-di-
=290	=290	=290	=290	=290	=290	=290	=290	=290	=290	=290	=290
1C	.	1C	-o	2c\	-o	4e\	.	4cc\	.	1ee	-o
.	.	.	.	.	.	4f#X\	.	4dd\	.	.	.
.	.	.	.	2e\	nos-	[y2g\	.	4cc\	.	.	.
.	.	.	.	.	.	.	.	4b\	.	.	.
=291	=291	=291	=291	=291	=291	=291	=291	=291	=291	=291	=291
!	!	!	!	!	!	!LO:N:vis=xstem:cue	!	!	!	!	!
1D	.	1D	nos-	1A	-tri	4g\]	.	2.a\	.	2.dd\	Nos-
.	.	.	.	.	.	4g\	-di-	.	.	.	.
.	.	.	.	.	.	2f#X\	-o	.	.	.	.
.	.	.	.	.	.	.	.	4a\	-di-	4cc\	.
=292	=292	=292	=292	=292	=292	=292	=292	=292	=292	=292	=292
1GG	.	1GG	-tri	2r	.	1g	nos-	2g/	-o	4b\	.
!	!	!	!	!	!	!	!	!LO:TX:t=P:problem:przekreślona kreska taktowa	!	!	!
.	.	.	.	.	.	.	.	.	.	4a\	.
.	.	.	.	2d\	Sit	.	.	2g/	nos-	2b\	.
=293	=293	=293	=293	=293	=293	=293	=293	=293	=293	=293	=293
0C	.	0C	Sit	4e\	Chri-	2e,<\	-tri	2e,</	-tri	1g	-tri
.	.	.	.	4d\	.	.	.	.	.	.	.
!	!	!	!	!	!	!	!	!LO:SIC:v:t=custos gg	!	!	!
.	.	.	.	4c\	.	2g\	sit	2ee\	Sit	.	.
.	.	.	.	4d\	.	.	.	.	.	.	.
!	!	!	!	!	!	!	!	!LO:LB:g=original	!	!	!
=294	=294	=294	=294	=294	=294	=294	=294	=294	=294	=294	=294
!	!	!	!	!	!	!LO:SIC:v:t=custos f	!	!	!	!	!
.	.	.	.	4e\	.	2.e\	Chriſ-	2gg\	Chris-	2r	.
.	.	.	.	4d\	.	.	.	.	.	.	.
!	!	!	!	!	!	!	!	!	!	!LO:SIC:v:t=custos ff	!
.	.	.	.	[y2c\	.	.	.	2cc\	-t(us)	2ee\	Sit
!	!	!	!	!	!	!LO:LB:g=original	!	!	!	!	!
.	.	.	.	.	.	(8f\L	.	.	.	.	.
.	.	.	.	.	.	8g\J)	.	.	.	.	.
!	!	!	!	!	!	!	!	!	!	!LO:LB:g=original	!
=295	=295	=295	=295	=295	=295	=295	=295	=295	=295	=295	=295
!LO:SIC:v:t=custos C	!	!	!	!LO:N:vis=xstem:cue	!	!	!	!	!	!	!
1F	.	1F	Chri-	4c\]	.	1a	-tus	4a\	De-	2ff\	Chris-
.	.	.	.	4B\	.	.	.	4g\	.	.	.
.	.	.	.	4A\	.	.	.	4a\	.	2dd\	-t(us)
.	.	.	.	4B\	.	.	.	4b\	.	.	.
!LO:LB:g=original	!	!	!	!	!	!	!	!	!	!	!
=296	=296	=296	=296	=296	=296	=296	=296	=296	=296	=296	=296
1C	.	1C	-st(us)	1c	.	2r	.	4cc\	.	4ee\	De-
.	.	.	.	.	.	.	.	4b\	.	4dd\	.
.	.	.	.	.	.	(<2G/	Chriſ-	4a\	.	4cc\	.
.	.	.	.	.	.	.	.	4g\	.	4b\	.
=297	=297	=297	=297	=297	=297	=297	=297	=297	=297	=297	=297
!	!	!	!	!LO:SIC:v:s=2A\	!	!	!	!	!	!	!
1D	.	(1D	De-	2B\	-st(us)	1d)	.	4f/	.	4a\	.
.	.	.	.	.	.	.	.	4e/	.	4g\	.
!	!	!	!	!	!	!	!	!LO:TX:t=P:problem:przekreślona synkopowana wartość	!	!	!
.	.	.	.	2r	.	.	.	1f	.	4a\	.
.	.	.	.	.	.	.	.	.	.	4b\	.
=298	=298	=298	=298	=298	=298	=298	=298	=298-	=298	=298	=298
!	!	!	!	!LO:SIC:v:s=1G	!	!	!	!	!	!	!
!	!	!	!	!LO:SIC:v:t=custos A	!	!	!	!	!	!	!
1C	.	1C)	.	1A	Sit	2G,</	-tus	.	.	4cc\	.
.	.	.	.	.	.	.	.	.	.	4dd\	.
!	!	!	!	!	!	!	!	!	!	!LO:TX:t=P:problem:przekreślona synkopowana wartość	!
.	.	.	.	.	.	(>4c/	De-	2e/	-us	1cc	.
.	.	.	.	.	.	4B/)	.	.	.	.	.
!	!	!	!	!LO:LB:g=original	!	!	!	!	!	!	!
=299	=299	=299	=299	=299	=299	=299	=299	=299	=299	=299-	=299
0D	.	0D	.	2A/	Chris-	(2A/	.	2f#X/	De-	.	.
!	!	!	!	!	!	!	!	!LO:TX:t=P:problem:przekreślona synkopowana wartość	!	!	!
.	.	.	.	4B\	.	2G/)	.	1g	.	2b\	.
.	.	.	.	4c\	.	.	.	.	.	.	.
=300	=300	=300	=300	=300	=300	=300	=300	=300-	=300	=300	=300
!	!	!	!	!	!	!LO:TX:a:t=3.	!	!	!	!	!
.	.	.	.	2.d\	.	[1dl	-us.	.	.	1a	.
.	.	.	.	.	.	.	.	2f#X/	.	.	.
.	.	.	.	4c\	.	.	.	.	.	.	.
=301	=301	=301	=301	=301	=301	=301	=301	=301	=301	=301	=301
!LO:N:vis=0.	!	!	!	!	!	!	!	!	!	!LO:N:vis=1	!
0GG;l	.	0GG;l	-us.	0B;l	-tus.	1d_	.	0g;l	-us.	0b;	-us.
=	=	=	=	=	=	=	=	=	=	=	=
.	.	.	.	.	.	1d]	.	.	.	.	.
=302||	=302||	=302||	=302||	=302||	=302||	=302||	=302||	=302||	=302||	=302||	=302||
*M2/2	*	*M2/2	*	*M2/2	*	*M2/2	*	*M2/2	*	*M2/2	*
*met(C|)	*	*met(C|)	*	*met(C|)	*	*met(C|)	*	*met(C|)	*	*met(C|)	*
!LO:TX:b:t=Vbi Charitas&colon;	!	!	!	!	!	!	!	!LO:TX:a:t=2.	!	!	!
0G	.	0r	.	0G	V-	1.d	U-	0r	.	[1b	V-
=303	=303	=303	=303	=303	=303	=303-	=303	=303	=303	=303	=303
.	.	.	.	.	.	.	.	.	.	1b]	.
.	.	.	.	.	.	2g\	-bi	.	.	.	.
=304	=304	=304	=304	=304	=304	=304	=304	=304-	=304	=304	=304
!	!	!	!	!LO:SIC:v:s=0c	!	!	!	!	!	!LO:TX:a:t=2	!
0C	.	0C	V-	0d	-bi	1.g	Cha-	2r	.	0cc	-bi
!	!	!	!	!	!	!	!	!LO:TX:t=P:problem:przekreślona synkopowana wartość	!	!	!
.	.	.	.	.	.	.	.	1g	U-	.	.
=305	=305	=305	=305	=305	=305	=305-	=305	=305-	=305	=305	=305
.	.	.	.	.	.	.	.	.	.	.	.
.	.	.	.	.	.	2g\	-ri-	2cc\	-bi	.	.
=306	=306	=306	=306	=306	=306	=306	=306	=306	=306	=306	=306
!	!	!	!	!	!	!	!	!LO:SIC:v:l:s=Cha	!	!	!
1F	.	1F	-bi	[y1c	Cha-	1.f	-tas	[y1cc	ha-	[y1a	Cha-
=307	=307	=307	=307	=307	=307	=307	=307	=307	=307	=307	=307
!	!	!	!	!LO:N:vis=xstem:cue	!	!	!	!LO:N:vis=xstem:cue	!	!LO:N:vis=xstem:cue	!
[y1F	.	[y1F	Cha-	2c\]	.	.	.	2cc\]	.	2a\]	.
.	.	.	.	2c\	-ri-	2c\	et	2cc\	-ri-	2a\	-ri-
=308	=308	=308	=308	=308	=308	=308	=308	=308	=308	=308	=308
!LO:N:vis=xstem:cue	!	!LO:N:vis=xstem:cue	!	!	!	!	!	!	!	!LO:TX:a:t=4.	!
2F\]	.	2F\]	.	0c	-tas	2.f\	a-	2cc\	-tas	00a	-tas,
!	!	!LO:SIC:v:t=custos F	!	!	!	!	!	!	!	!	!
2F\	.	2F\	-ri-	.	.	.	.	2a\	et	.	.
.	.	.	.	.	.	4g\	.	.	.	.	.
!	!	!LO:LB:g=original	!	!	!	!	!	!	!	!	!
=309	=309	=309	=309	=309	=309	=309	=309	=309	=309	=309	=309
!	!	!	!	!	!	!	!	!LO:SIC:v:t=custos cc	!	!	!
0F	.	0F	-tas	.	.	4a\	.	1cc	A-	.	.
!	!	!	!	!	!	!LO:SIC:v:t=custos f	!	!	!	!	!
.	.	.	.	.	.	4g\	.	.	.	.	.
!	!	!	!	!	!	!LO:LB:g=original	!	!	!	!	!
.	.	.	.	.	.	4f\	.	.	.	.	.
.	.	.	.	.	.	4e\	.	.	.	.	.
!	!	!	!	!	!	!	!	!LO:LB:g=original	!	!	!
=310	=310	=310	=310	=310	=310	=310	=310	=310	=310	=310	=310
.	.	.	.	0A	et	2f\	.	1cc	-mor	.	.
!	!	!	!	!	!	!LO:TX:t=P:problem:przekreślona synkopowana wartość	!	!	!	!	!
.	.	.	.	.	.	1c	.	.	.	.	.
=311	=311	=311	=311	=311	=311	=311-	=311	=311	=311	=311	=311
2F\	.	2F\	V-	.	.	.	.	2r	.	.	.
!	!	!	!	!	!	!	!	!	!	!LO:SIC:v:t=custos b	!
2D/	.	2D/	-bi	.	.	2d\	.	2f/	et	.	.
!	!	!	!	!	!	!	!	!	!	!LO:LB:g=original	!
=312	=312	=312	=312	=312	=312	=312	=312	=312	=312	=312	=312
!	!	!	!	!	!	!	!	!	!	!LO:TX:a:t=2.	!
2E\	.	2E\	Cha-	0c	a-	0c	-mor	2g/	a-	0r	.
1F	.	1F	.	.	.	.	.	[y2a\	.	.	.
=313-	=313	=313-	=313	=313	=313	=313	=313	=313	=313	=313	=313
!	!	!	!	!	!	!	!	!LO:N:xstem:cue	!	!	!
.	.	.	.	.	.	.	.	4a\]	.	.	.
.	.	.	.	.	.	.	.	4g/	.	.	.
2C/	.	2C/	.	.	.	.	.	4f/	.	.	.
.	.	.	.	.	.	.	.	4e/	.	.	.
=314	=314	=314	=314	=314	=314	=314	=314	=314	=314	=314-	=314
!LO:SIC:v:t=custos D	!	!	!	!	!	!LO:TX:a:t=2.	!	!	!	!	!
1D	.	[y1D	.	(1B	-mor	0r	.	2f#X/	.	2r	.
!	!	!	!	!	!	!	!	!LO:TX:t=P:problem:przekreślona synkopowana wartość	!	!	!
.	.	.	.	.	.	.	.	1g	.	2b\	et
!LO:LB:g=original	!	!	!	!	!	!	!	!	!	!	!
=315	=315	=315	=315	=315	=315	=315	=315	=315-	=315	=315	=315
!	!	!LO:N:vis=xstem:cue	!	!	!	!	!	!	!	!	!
2D/	.	2D/]	.	1A)	.	.	.	.	.	2.dd\	a-
2D/	.	2D/	-ri-	.	.	.	.	2f#X/	.	.	.
.	.	.	.	.	.	.	.	.	.	4cc\	.
=316	=316	=316	=316	=316	=316	=316-	=316	=316	=316	=316	=316
!	!	!	!	!LO:SIC:v:t=custos A	!	!	!	!	!	!	!
1GG	.	1GG	-tas	0G	De-	2d\	et	[1gl	-mor	4b\	.
.	.	.	.	.	.	.	.	.	.	4a\	.
!	!	!	!	!	!	!LO:TX:t=P:problem:przekreślona synkopowana wartość	!	!	!	!	!
.	.	.	.	.	.	1g	a-	.	.	[y2b\	.
=317	=317	=317	=317	=317	=317	=317-	=317	=317	=317	=317	=317
!	!	!	!	!	!	!	!	!	!	!LO:N:vis=xstem:cue	!
!	!	!	!	!	!	!	!	!LO:TX:t=P:problem:8 taktów wykreślonych	!	!	!
2r	.	2r	.	.	.	.	.	1g]	.	4b\]	.
.	.	.	.	.	.	.	.	.	.	4a\	.
1C	.	(>1C	et	.	.	[y2e\	.	.	.	4g/	.
!	!	!	!	!	!	!	!	!LO:TX:b:t=V&colon; S&colon;	!	!	!
.	.	.	.	.	.	.	.	.	.	4f/	.
!	!	!	!	!LO:LB:g=original	!	!	!	!LO:PB:g=original	!	!	!
=318-	=318	=318-	=318	=318	=318	=318	=318	=318	=318	=318	=318
!	!	!	!	!	!	!LO:N:vis=xstem:cue	!	!	!	!	!
.	.	.	.	0A	-us	4e\]	.	2r	.	[y1e	.
.	.	.	.	.	.	4d\	.	.	.	.	.
!	!	!	!	!	!	!	!	!LO:TX:t=P:problem:przekreślona synkopowana wartość	!	!	!
1AA	.	1AA	a-	.	.	[y2c/	.	1cc	et	.	.
=319-	=319	=319-	=319	=319	=319	=319	=319	=319-	=319	=319	=319
!	!	!	!	!	!	!LO:N:vis=xstem:cue	!	!	!	!LO:N:vis=xstem:cue	!
.	.	.	.	.	.	4c/]	.	.	.	2e/]	.
.	.	.	.	.	.	4B/	.	.	.	.	.
!	!	!	!	!	!	!	!	!LO:TX:t=P:problem:przekreślona synkopowana wartość	!	!	!
2D/	.	2D/)	.	.	.	2A/	.	1dd	a-	2f#X/	.
=320	=320	=320	=320	=320	=320	=320	=320	=320-	=320	=320	=320
!	!	!	!	!	!	!	!	!	!	!LO:TX:a:t=2.	!
1GG	.	1GG	-mor	0B	i-	2G/	-mor	.	.	0g	-mor
!	!	!	!	!	!	!	!	!LO:TX:t=P:problem:przekreślona synkopowana wartość	!	!	!
.	.	.	.	.	.	2g\	De-	1b	-mor	.	.
=321	=321	=321	=321	=321	=321	=321	=321	=321-	=321	=321	=321
2r	.	2r	.	.	.	2d\	-us	.	.	.	.
!	!	!	!	!	!	!LO:TX:t=P:problem:przekreślona synkopowana wartość	!	!	!	!	!
2E\	.	2E\	De-	.	.	1e	i-	2b\	De-	.	.
=322	=322	=322	=322	=322	=322	=322-	=322	=322	=322	=322	=322
2C/	.	2C/	-(us)	0A	-bi	.	.	2cc\	-us	2r	.
1D	.	1D	i-	.	.	2d\	-bi	2a\	De-	2dd\	De-
=323-	=323	=323-	=323	=323	=323	=323	=323	=323	=323	=323	=323
.	.	.	.	.	.	1d	est	2.dd\	.	2a\	-us
2D/	.	2D/	-bi	.	.	.	.	.	.	[y2dd\	De-
!	!	!	!	!	!	!	!	!LO:TX:a:t=Anno. 1722	!	!	!
.	.	.	.	.	.	.	.	4cc\	.	.	.
=324	=324	=324	=324	=324	=324	=324	=324	=324	=324	=324	=324
!	!	!	!	!	!	!LO:TX:b:i:t=V&colon;S&colon;	!	!	!	!LO:N:vis=xstem:cue	!
!	!	!	!	!LO:TX:t=P:problem:fermaty na kresce 	!	!LO:SIC:v:t=custos g	!	!	!	!	!
1GG	.	1GG	est	[0G;;l	est.	2r	.	4b\	.	4dd\]	.
.	.	.	.	.	.	.	.	4a\	.	4cc\	.
!	!	!	!	!	!	!LO:PB:g=original	!	!	!	!	!
.	.	.	.	.	.	2g\	De-	4g/	.	4b\	.
.	.	.	.	.	.	.	.	4f#X/	.	4a\	.
=325	=325	=325	=325	=325	=325	=325	=325	=325	=325	=325	=325
2r	.	2r	.	.	.	1d	-us	4g/	.	2b\	.
!	!	!	!	!	!	!	!	!LO:SIC:v:t=custos b	!	!	!
.	.	.	.	.	.	.	.	4a\	.	.	.
!	!	!	!	!	!	!	!	!LO:LB:g=original	!	!	!
1G	.	1GG	De-	.	.	.	.	4b\	.	4g/	.
!	!	!	!	!	!	!	!	!	!	!LO:SIC:v:t=custos b	!
!	!	!	!	!	!	!	!	!	!	!LO:TX:b:t=V&colon; S&colon;	!
.	.	.	.	.	.	.	.	4cc\	.	4a\	.
!	!	!	!	!	!	!	!	!	!	!LO:PB:g=original	!
=326-	=326	=326-	=326	=326	=326	=326	=326	=326	=326	=326	=326
.	.	.	.	0G_	.	2.g\	i-	4dd\	.	4b\	.
.	.	.	.	.	.	.	.	4cc\	.	4cc\	.
!	!	!LO:SIC:v:t=custos C	!	!	!	!	!	!	!	!	!
2BB/	.	2BB/	-(us)	.	.	.	.	(4b\	-us	(4dd\	-us
.	.	.	.	.	.	4f\	.	4dd\)	.	4b\)	.
!	!	!LO:LB:g=original	!	!	!	!	!	!	!	!	!
=327	=327	=327	=327	=327	=327	=327	=327	=327	=327	=327	=327
2.C/	.	2.C/	i-	.	.	2.e\	.	2.cc\	i-	2.ee\	i-
4C/	.	4C/	-bi	.	.	4f#X\	-bi	4cc\	-bi	4ee\	-bi
=328	=328	=328	=328	=328	=328	=328	=328	=328	=328	=328	=328
!	!	!LO:TX:b:t=Anno. 1722	!	!LO:TX:b:t=Anno. 1722	!	!LO:TX:b:t=Anno. 1722	!	!	!	!LO:TX:b:t=1722	!
!LO:TX:t=P:problem:fermaty na kresce	!	!LO:TX:t=P:problem:dodatkowe dwie fermaty na kresce	!	!	!	!LO:TX:t=P:problem:fermaty na kresce taktowej	!	!LO:TX:t=P:problem:fermata na kresce taktowej	!	!LO:TX:t=P:problem:fermaty na kresce taktowej	!
1GG;;l	.	1GG;l	est.	1G]	.	1gl;;	est.	1b;l	eſt.	1dd;;	est.
==	==	==	==	==	==	==	==	==	==	==	==
*-	*-	*-	*-	*-	*-	*-	*-	*-	*-	*-	*-
!!!system-decoration: [s1,s2,s3,s4,s5]s6
!!!RDF**kern: > = above
!!!RDF**kern: < = below
!!!RDF**kern: l = terminal long
!!!ENC: Andrzej Borzym
!!!END: 2020-08-25
!!!ENC: Marta Lawrence
!!!END: 2021-11-01
